!!!!SEGMENT: pl-wn--mus-iii-161-460_wieniawski-henryk--polonaise-de-concert-op-4.krn
!!!cenid: 18xx:3825
!!!COM: Wieniawski, Henryk
!!!COM-rismID:
!!!CDT:
!!!CNT:
!!!OTL: Polonaise de concert op. 4
!!!PDT:
!!!AGN:
!!!SMS-siglum: PL-Wn
!!!SMS-shelfmark: Mus.III.161.460
!!!SMS-shelfwork: W
!!!SMS-variant: Partytura: PL-Wn Mus.III.161.460:2-9
!!!SMS-altvar: Violon.: PL-Wn Mus.III.161.460:10-13
!!!NIFC-rismSourceID:
!!!NIFC-islandoraID:
!!!URL-pdf-islandora:
!!!URL-scan: https://polona.pl/item/polonaise-de-concert-op-4,MTA4MDQwOTc5/1/#info:metadata @EN{Scan on Polona} @PL{Skany w portalu Polona}
!!!ONB-nifc: UWAGA: na podstawie partytury (SMS:variant), partia skrzypiec do SMS:altvar
!!!OMD: Allegro maestoso.
!!!AIN: 1 piano 1 violn
!!!key: D
**kern	**kern	**dynam	**kern	**dynam
*	*	*	*scale:70%	*
*part2	*part2	*part2	*part1	*part1
*staff3	*staff2	*	*staff1	*
*>[A,A,B]	*>[A,A,B]	*	*>[A,A,B]	*
*>A	*>A	*	*>A	*
*I"Piano	*I"Piano	*	*I"Violon	*
*mI"Pianoforte	*mI"Pianoforte	*	*mI"Violino	*
*Ipiano	*Ipiano	*	*Ivioln	*
*ICklav	*ICklav	*	*ICstr	*
*IGacmp	*IGacmp	*	*IGsolo	*
*clefF4	*clefG2	*	*clefG2	*
*k[f#c#]	*k[f#c#]	*	*k[f#c#]	*
*D:	*D:	*	*D:	*
*M3/4	*M3/4	*	*M3/4	*
=1	=1	=1	=1	=1
2.r	4.a 4.A/	f	2.r	.
.	16aLL 16A/	.	.	.
.	16aJJ 16A/	.	.	.
.	8aL 8A/	.	.	.
.	8aJ 8A/	.	.	.
=2	=2	=2	=2	=2
2.r	4a 4A/	.	2.r	.
.	4a 4A/	.	.	.
.	4a 4A/	.	.	.
=3	=3	=3	=3	=3
2.r	4.a 4.A/	.	2.r	.
.	16aLL 16A/	.	.	.
.	16aJJ 16A/	.	.	.
.	8aL 8A/	.	.	.
.	8aJ 8A/	.	.	.
=4	=4	=4	=4	=4
2.r	4a 4A/	.	2.r	.
.	4a 4A/	.	.	.
.	4a 4A/	.	.	.
=5!|:	=5!|:	=5!|:	=5!|:	=5!|:
!	!	!	!LO:TX:t=P:problem:mixed beam	!
8AA 8AAA/	8a 8e 8c#/	p	8A^>/L	mf <
8r	8r	<	8aa^\	.
8AA 8AAA/	8g#X 8d 8B/	.	8bb^\	.
8r	8r	.	8B^>/	.
8AA 8AAA/	8gn 8e 8c#/	.	8c#^>/	.
8r	8r	[	8ccc#^\J	[
!!LO:LB:g=original
=6	=6	=6	=6	=6
.	.	.	(8qccc#/	.
4DD 4DDD/	8r	mf	(8eee'^\L)	f
.	16f#LL 16d 16A'/	>	8ddd'^\J)	.
.	16f#JJ 16d 16A'/	.	.	.
4r	8f#L 8d 8A'/	.	4.aa\	>
.	8f#J 8d 8A'/	]	.	.
!	!LO:TX:t=P:problem:mixed beam	!	!	!
4ryy	8FF#<L 8FFF#</	mp	.	.
.	8f#J 8d 8A#X\	.	(8aa#X'\	] mf
=7	=7	=7	=7	=7
.	.	.	(16qqaa#X/LL	.
.	.	.	16qqccc#/JJ	.
!	!LO:TX:t=P:problem:mixed beam	!	!LO:TX:b:i:t=grazioso	!
2.ryy	8GG<L 8GGG</	.	8bb\L))	.
.	8e 8d 8B\	.	16ff#'\L	.
.	.	.	(16aan\JJ	.
.	.	.	(16qqgg/LL	.
.	.	.	16qqaa/JJ	.
.	8EE< 8EEE</	.	8gg\L))	.
.	8g 8e 8d 8B\	.	16b'\L	.
.	.	.	(16dd\JJ	.
.	.	.	(16qqcc#/LL	.
.	.	.	16qqdd/JJ	.
.	8AA< 8AAA</	.	8cc#\L))	.
!	!LO:TX:b:i:t=rit.	!	!LO:TX:b:i:t=rit.	!
.	(8gJ 8e 8c# 8A'\	.	16b#X'\L	.
.	.	.	16cc#'\JJ	.
=8	=8	=8	=8	=8
.	.	.	(8qcc#/	.
8DD'\L	8f#L 8d'/	>	(16bb\LL)	>
.	.	.	16aa\	.
8A'\	16r	.	16dd\	.
.	16gJk 16c#'/	.	16ee\JJ)	.
!	!	!	!	!LO:MO:null:mod=]
8D'\	4f# 4d/)	.	(4.ff#\	.
!	!	!	!	!LO:MO:mod=<
8AA'\J	.	.	.	]
!	!	!	!	!LO:MO:mod=.
4DD/	8r	.	.	<
!	!LO:TX:a:i:t=a tempo	!	!LO:TX:a:i:t=a tempo	!
.	8g#X 8fn 8d/	] < [[	24b\LL	.
.	.	.	24cc#\	.
.	.	.	24b\JJ	[[
!!LO:LB:g=original
=9	=9	=9	=9	=9
4AA 4AAA/	4a 4e 4c#/	f	8a/L)	f
.	.	.	16A'/L	ff
.	.	.	16aa'/JJ	.
8AAL 8AAA/	8g#XL 8d 8B/	.	16bb'\LL	.
.	.	.	16B'\	.
8AA 8AAA/	8gn 8e 8c#/	.	16c#'\	.
.	.	.	16ccc#'\JJ	.
8AA 8AAA/	8f# 8d/	.	16ddd'\LL	.
.	.	.	16d'\	.
8AAJ 8AAA/	8eJ 8c#/	.	16e'\	.
.	.	.	16eee'\JJ	.
=10	=10	=10	=10	=10
!	!	!	!LO:TX:b:i:t=largamente	!
2.GG#X 2.GGG#X/	2.fn 2.d 2.B/	.	(16fffn\LL	>
.	.	.	16ddd\)	.
.	.	.	16bb~\	.
.	.	.	16gg#X~\JJ	.
.	.	.	16ffn~\LL	.
.	.	.	16dd~\	.
.	.	.	16b~\	.
.	.	.	16g#X~\JJ	.
!	!	!	!LO:MOR:acc=none	!
.	.	.	(8fnm/L	.
.	.	.	16e/L)	.
.	.	.	16d~/JJ	]]
=11	=11	=11	=11	=11
*^	*	*	*	*
.	.	.	.	(8qd/	.
8f#X/L	4A\	(8aaL 8dd 8a'\	pp	16aaa\)	pp
.	.	.	.	16r	.
8d#X/J	.	8ff#J 8ccn'\	.	4aaa^\	.
4e 4A\	2ryy	4gg 4cc#X\)	.	.	.
.	.	.	.	16ee~\LL	.
.	.	.	.	16ff#~\JJ	.
4r	.	4r	.	(16aa\LL	.
.	.	.	.	16gg\	.
.	.	.	.	16b\)	.
.	.	.	.	16cc#~\JJ	.
*v	*v	*	*	*	*
=12	=12	=12	=12	=12
*	*^	*	*	*
4r	4r	(>2A\	>	((16ee\LL	.
.	.	.	.	16dd#X\	.
.	.	.	.	16ff#\)	.
.	.	.	.	32r	.
.	.	.	.	32ee'\JJk)	.
8r	4g 4c#/	.	.	(4ee\	>
8AAA'/	.	.	.	.	.
8DD'/	8f# 8d/)	4ryy	.	8ddn\)	]
8r	8r	.	]	8r	.
*	*v	*v	*	*	*
!!LO:LB:g=original
=13:|!	=13:|!	=13:|!	=13:|!	=13:|!
*>B	*>B	*	*>B	*
*	*clefF4	*	*	*
!	!	!	!LO:TX:a:B:t=A:rj	!
4BB 4BBB/	8f#L 8d 8B 8F#'\	mf	8ff#L 8dd\	ff
.	16f#L 16d 16B 16F#'\	.	8B\J	.
.	16f#JJ 16d 16B 16F#'\	.	.	.
!	!LO:MO:mod=!LO&colon;TX&colon;b&colon;i&colon;t=allargando	!	!	!
!	!LO:TX:B:b:t=allargando:color=deeppink	!	!	!
4r	8f#L 8d 8B 8F#'\	.	8.dddL 8.dd 8.f# 8.B^\	.
.	8f#J 8d 8B 8F#'\	.	.	.
.	.	.	16ccc#Jk 16dd 16f# 16B^\	.
4BB 4BBB/	8r	.	16bbLL 16dd 16f#^\	.
.	.	.	16aa#X 16dd 16f#^\	.
.	8f# 8d 8B 8F#\	.	16ccc# 16dd 16f#^\	.
.	.	.	16bbJJ 16dd 16f#^\	.
=14	=14	=14	=14	=14
!	!	!LO:MO:mod=!null:null	!	!LO:MO:mod=!null:null
!	!	!LO:HP:t=dim.	!	!LO:HP:t=dim.
4EE 4EEE/	8r	>	(16ccc#LL 16ee 16g 16B\	>
.	.	.	16bb\)	.
.	8g 8e 8B 8G\	.	(16aa 16b 16e\	.
.	.	.	16gg\JJ)	.
4BB 4BBB/	8r	.	8ff#L 8dd 8f# 8B\	.
!	!LO:MO:mod=!LO&colon;TX&colon;b&colon;i&colon;t=a tempo	!	!	!
!	!LO:TX:B:b:t=a tempo:color=deeppink	!	!	!
.	16f#LL 16d 16B 16F#'\	.	16ddL 16b\	.
.	16f#JJ 16d 16B 16F#'\	.	16eeJJ 16cc#\	.
4r	8f#L 8d 8B 8F#'\	.	8ff#L 8dd\	.
.	8f#J 8d 8B 8F#'\	.	(24ddL 24b\	mp <
.	.	.	24ee 24cc#\	.
.	.	.	24ddJJ 24b\)	[[
=15	=15	=15	=15	=15
4FF# 4FFF#/	8r	p	8cc# 8a#X\	>
.	16f#LL 16e 16A#X 16F#'\	<	4f#^/	]
.	16f#JJ 16e 16A# 16F#'\	.	.	.
4r	8f#L 8e 8A# 8F#'\	.	.	.
.	8f#J 8e 8A# 8F#'\	.	(24ggLL 24ee\	p <
.	.	.	24aan 24ff#\	.
.	.	.	24ggJJ 24ee\)	[
4FF# 4FFF#/	8r	.	8ff#L 8dd'\	>
.	8f# 8e 8A# 8F#\	[[	(24eeL 24cc#\	] <
.	.	.	24ff# 24dd\	.
.	.	.	24eeJJ 24cc#\)	[
!!LO:PB:g=original
=16	=16	=16	=16	=16
!	!	!	!LO:TX:t=P:problem:diminuendolike accent	!
8BB 8BBB/	8f# 8d 8B 8F#'^<\	.	8ddL 8b'^<\	.
*	*clefG2	*	*	*
8F#\L	8a#XL 8e 8c#'/	pp <	(24cc#L 24f#\	<
.	.	.	24dd 24f#\	.
.	.	.	24cc#JJ 24f#\)	[
8BB\J	8bJ 8d 8B'^/	[	8bL 8d'^/	.
!	!	!	!LO:MO:mod=!LO&colon;TX&colon;a&colon;i&colon;t=pizz.	!
!	!	!	!LO:TX:a:t=pizz.	!
8f#\L	8ff#'\L	<	8f#/J	<
8B\	8b'\	.	8b\L	.
8F#J 8FF#\	8aa#XJ 8ff# 8ee 8cc#'\	[	8aa#XJ 8cc# 8f#\	[
=17	=17	=17	=17	=17
!	!	!	!LO:TX:t=P:problem:diminuendolike accent	!
4BB 4BBB/	8bb 8ff# 8dd 8b'^<\	.	8bbL 8dd 8f# 8B^<\	.
*	*clefF4	*	*	*
!	!	!	!LO:MO:mod=!LO&colon;TX&colon;a&colon;i&colon;t=arco	!
!	!	!	!LO:TX:a:t=arco	!
.	16f#LL 16d 16B 16F#'\	mf	8B\J	ff
.	16f#JJ 16d 16B 16F#'\	.	.	.
!	!LO:MO:mod=!LO&colon;TX&colon;b&colon;i&colon;t=allargando	!	!	!
!	!LO:TX:b:B:t=allargando:color=deeppink	!	!	!
4r	8f#L 8d 8B 8F#'\	.	8.dddL 8.dd 8.f# 8.B^\	.
.	8f#J 8d 8B 8F#'\	.	.	.
.	.	.	16ccc#Jk 16dd 16f# 16B^\	.
4BB 4BBB/	8r	.	16bbLL 16dd 16f#^\	.
.	.	.	16aa#X 16dd 16f#^\	.
.	8f# 8d 8B 8F#\	.	16ccc# 16dd 16f#^\	.
.	.	.	16bbJJ 16dd 16f#^\	.
=18	=18	=18	=18	=18
!	!	!LO:HP:t=dim.	!	!LO:HP:t=dim.
4EE 4EEE/	8r	>	(16ccc#LL 16ee 16g 16B/	>
.	.	.	16bb/)	.
.	8g 8e 8B 8G\	.	(16aa 16b 16e/	.
.	.	.	16gg/JJ)	.
4BB 4BBB/	8r	.	8ff#L 8dd 8f# 8B'\	.
!	!LO:MO:mod=!LO&colon;TX&colon;b&colon;i&colon;t=a tempo	!	!	!
!	!LO:TX:B:b:t=a tempo:color=deeppink	!	!	!
.	16f#LL 16d 16B 16F#'\	.	16ddL 16b'\	.
.	16f#JJ 16d 16B 16F#'\	.	16eeJJ 16cc#'\	.
8r	8f# 8d 8B 8F#'\	.	8ff#L 8dd'\	.
8BB-X 8BBB-X/	(8B-X\	p	16ff#\L	p
.	.	.	16gg\JJ	.
!!LO:LB:g=original
=19	=19	=19	=19	=19
8AA 8AAA/	8A\)	.	8aa\	.
*	*clefG2	*	*	*
16f#LL 16A\	16aaLL 16dd 16a'\	.	(4aaa\	.
16f#JJ 16A\	16aaJJ 16dd 16a'\	.	.	.
8f# 8A\	8aa 8dd 8a'\	.	.	.
*	*clefF4	*	*	*
8r	(8A\	.	8ddd\L	.
4AA 4AAA/	8c#L 8G\	.	8eee\	.
.	8A\J	.	8aa\J)	.
=20	=20	=20	=20	=20
4DD/	8dL 8F#\)	.	2fff#\	.
.	16f#L 16d 16A'\	<	.	<
.	16f#JJ 16d 16A'\	.	.	.
4r	8f#L 8d 8A'\	.	.	.
.	8f#J 8d 8A'\	.	.	.
8r	8f# 8d 8A'\	.	(16dd\LL	.
.	.	.	16ee\	.
*	*clefG2	*	*	*
8G\	8b 8c# 8B/	.	16dd\	.
.	.	.	16ee\JJ)	.
=21	=21	=21	=21	=21
4F#\	8b 8d 8B/	mf	8ff#\	f
.	16f#LL 16d 16B'/	p	4fff#\	p
.	16f#JJ 16d 16B'/	.	.	.
4FF#/	8f#L 8d 8B'/	.	.	.
*	*	*	*8va	*
.	8f#J 8d 8B'/	.	8bbb\L	.
!	!LO:TX:b:i:t=rit.:note=podkreślone na różowo	!	!LO:TX:b:i:t=rit.:rj	!
4F#\	8r	.	(8.dddd\	.
.	(>8f# 8e 8A#X/	.	.	.
.	.	.	16cccc#\Jk)	.
=22	=22	=22	=22	=22
*	*^	*	*	*
4B\	4f# 4d/	4ryy	.	4bbb\	<
2d\	2g#X/	4fn\	.	[4bbb-X\	.
.	.	4e\	.	4bbb-\]	[
*	*	*	*	*X8va	*
*	*v	*v	*	*	*
!!LO:LB:g=original
=23	=23	=23	=23	=23
!	!	!	!LO:TX:a:B:t=B:rj	!
!	!	!	!LO:TX:a:i:t=a tempo	!
!	!LO:TX:a:i:t=a tempo	!	!LO:TX:t=P:problem:mixed beam	!
8AA 8AAA/	8a 8e 8c#/)	<	8A^>/L	mf <
8r	8r	.	8aa^\	.
8AA 8AAA/	8g#X 8d 8B/	.	8bb^\	.
8r	8r	.	8B^>/	.
8AA 8AAA/	8gn 8e 8c#/	.	8c#^>/	.
8r	8r	[	8ccc#^\J	[
=24	=24	=24	=24	=24
.	.	.	(8qccc#/	.
4DD 4DDD/	8r	mf	(8eee'^\L)	f
.	16f#LL 16d 16A'/	>	8ddd'^\J)	.
.	16f#JJ 16d 16A'/	.	.	.
4r	8f#L 8d 8A'/	.	4.aa\	>
.	8f#J 8d 8A'/	]	.	.
!	!LO:TX:t=P:problem:mixed beam	!	!	!LO:MO:mod=.
4ryy	8FF#<L 8FFF#</	mp	.	]
!	!	!	!	!LO:MO:mod=] mf
.	8f#J 8d 8A#X\	.	(8aa#X'\	mf
=25	=25	=25	=25	=25
.	.	.	(16qqaa#X/LL	.
.	.	.	16qqccc#/JJ	.
!	!LO:TX:t=P:problem:mixed beam	!	!LO:TX:b:i:t=grazioso	!
2.ryy	8GG<L 8GGG</	.	8bb\L))	.
.	8e 8d 8B\	.	16ff#'\L	.
.	.	.	(16aan\JJ	.
.	.	.	(16qqgg/LL	.
.	.	.	16qqaa/JJ	.
.	8EE< 8EEE</	.	8gg\L))	.
.	8g 8e 8d 8B\	.	16b'\L	.
.	.	.	(16dd\JJ	.
.	.	.	(16qqcc#/LL	.
.	.	.	16qqdd/JJ	.
!	!LO:TX:b:i:t=rit.:note=podkreślone na różowo	!	!	!
.	8AA< 8AAA</	.	8cc#\L))	.
!	!	!	!LO:TX:b:i:t=rit.	!
.	(8gJ 8e 8c# 8A'\	.	16b#X'\L	.
.	.	.	16cc#'\JJ	.
=26	=26	=26	=26	=26
.	.	.	(8qcc#/	.
8DD'\L	8f#L 8d'/	>	(16bb\LL)	>
.	.	.	16aa\	.
8A'\	16r	.	16dd\	.
.	16gJk 16c#'/	.	16ee\JJ)	.
8D'\	4f# 4d/)	.	(4.ff#\	]
8AA'\J	.	.	.	<
!	!LO:MO:mod=!null:null	!	!	!
!	!LO:TX:a:i:t=a tempo	!	!	!
4DD/	8r	.	.	.
!	!LO:MO:mod=!LO&colon;TX&colon;a&colon;i&colon;t=a tempo	!	!	!
!	!null	!	!LO:TX:a:i:t=a tempo	!
.	8g#X 8fn 8d/	] < [[	24b\LL	.
.	.	.	24cc#\	.
.	.	.	24b\JJ	[[
!!LO:LB:g=original
=27	=27	=27	=27	=27
4AA 4AAA/	4a 4e 4c#/	f	8a'/L)	f
.	.	.	16A'/L	ff
.	.	.	16aa'/JJ	.
8AAL 8AAA/	8g#XL 8d 8B/	.	16bb'\LL	.
.	.	.	16B'\	.
8AA 8AAA/	8gn 8e 8c#/	.	16c#'\	.
.	.	.	16ccc#'\JJ	.
8AA 8AAA/	8f# 8d/	.	16ddd'\LL	.
.	.	.	16d'\	.
8AAJ 8AAA/	8eJ 8c#/	.	16e'\	.
.	.	.	16eee'\JJ	.
=28	=28	=28	=28	=28
!	!	!	!LO:TX:b:i:t=largamente	!
2.GG#X 2.GGG#X/	2.fn 2.d 2.B/	.	(16fffn\LL	>
.	.	.	16ddd\)	.
.	.	.	16bb~\	.
.	.	.	16gg#X~\JJ	.
.	.	.	16ffn~\LL	.
.	.	.	16dd~\	.
.	.	.	16b~\	.
.	.	.	16g#X~\JJ	.
!	!	!	!LO:MOR:acc=none	!
.	.	.	(8fnm/L	.
.	.	.	16e/L)	.
.	.	.	16d~/JJ	]]
=29	=29	=29	=29	=29
*^	*	*	*	*
.	.	.	.	(8qd/	.
!	!	!	!LO:DY:rj	!	!
8f#X/L	4A\	(8aaL 8dd 8a'\	pp	16aaa\)	pp
.	.	.	.	16r	.
8d#X/J	.	8ff#J 8ccn'\	.	4aaa^\	.
4e 4A\	2ryy	4gg 4cc#X\)	.	.	.
.	.	.	.	16ee~\LL	.
.	.	.	.	16ff#~\JJ	.
4r	.	4r	.	(16aa\LL	.
.	.	.	.	16gg\	.
.	.	.	.	16b\)	.
.	.	.	.	16cc#~\JJ	.
*v	*v	*	*	*	*
=30	=30	=30	=30	=30
*	*^	*	*	*
4r	4r	(>2A\	>	((16ee\LL	.
.	.	.	.	16dd#X\	.
.	.	.	.	16ff#\)	.
.	.	.	.	32r	.
.	.	.	.	32ee'\JJk)	.
8r	4g 4c#/	.	.	(4ee\	>
8AAA'/	.	.	.	.	.
8DD'/	8f# 8d/)	4ryy	.	8ddn\)	]
8r	8r	.	]	8r	.
*	*v	*v	*	*	*
!!LO:PB:g=original
=31	=31	=31	=31	=31
8AA 8AAA/	8a\L	ff <	2.r	.
8eL 8c# 8A\	8aa 8ee 8cc#'\	.	.	.
8A 8AA\	8bb 8ee 8dd 8b'\	.	.	.
8g#X 8e 8d 8B\	8b'\	.	.	.
8A 8AA\	8cc#'\	.	.	.
8aJ 8gn 8e 8c# 8A\	8ccc#J 8aa 8gg 8ee'\	[[	.	.
=32	=32	=32	=32	=32
8D 8DD/	8eeeL 8aa 8ff# 8ee'\	>	2.r	.
16aLL 16f# 16d 16A\	8dddJ 8aa 8ff# 8dd'\	.	.	.
16aJJ 16f# 16d 16A\	.	.	.	.
8f#L 8d 8A\	4.aa 4.ff# 4.dd 4.a^\	.	.	.
8f# 8d 8A\	.	]	.	.
8F# 8FF#\	.	.	.	.
8dJ 8A#X 8F#\	8aa#X 8a#X'\	.	.	.
=33	=33	=33	=33	=33
8B 8D 8GG\	8bbL 8gg 8dd 8b`\	.	2.r	.
16B\LL	(16b\L	.	.	.
16cn\JJ	16ccn\JJ	.	.	.
8B\L	8b\L)	.	.	.
8d#X 8D#X\	8aa 8ff# 8cc'\	<	.	.
8e 8E\	8gg 8ee 8b'\	.	.	.
8f#J 8F#\	8dd#XJ 8cc 8a'\	[	.	.
=34	=34	=34	=34	=34
8gL 8G\	(16ff#LL 16b\	>	2.r	.
.	16ee\	.	.	.
16g\L	16dd#X\	.	.	.
16g\JJ	16ee\JJ	.	.	.
8g\L	8b/L)	]	.	.
8f#\	16bL 16g'/	.	.	.
.	16bJJ 16g'/	.	.	.
8e\	8bL 8g'/	.	.	.
8d\J	8b#XJ 8g#X 8f#'/	.	.	.
!!LO:LB:g=original
=35	=35	=35	=35	=35
4c#\	8cc#L 8g#X 8e#X`\	.	2.r	.
.	8ccc#J 8gg#X 8ee#X 8cc#'\	.	.	.
8c#L 8C#\	8ddd#XL 8gg# 8ff# 8dd#X^\	.	.	.
*clefG2	*	*	*	*
8b#XJ 8g#X 8f# 8d#X\	8dd#'\	.	.	.
*clefF4	*	*	*	*
8c#L 8C#\	8ee#'\	.	.	.
*clefG2	*	*	*	*
8bnJ 8g#X 8c# 8Bn\	8eee#XJ 8ccc# 8gg#'\	.	.	.
*clefF4	*	*	*	*
=36	=36	=36	=36	=36
8F#L 8FF#/	8ggg#XL 8ccc# 8gg#X'\	.	2.r	.
*clefG2	*	*	*	*
16aL 16f# 16c# 16A/	8fff#J 8ccc# 8ff#'\	.	.	.
16aJJ 16f# 16c# 16A/	.	.	.	.
8aL 8f# 8d#X 8c# 8A/	8.aaaL 8.ddd#X 8.ccc# 8.aa^\	.	.	.
8a 8f# 8d# 8c# 8A/	.	.	.	.
.	16ggg#Jk 16gg#'\	.	.	.
8a 8f# 8d# 8c# 8A/	16fff#LL 16ff#'\	.	.	.
.	16eee 16ee'\	.	.	.
8aJ 8f# 8d# 8c# 8A/	16ddd# 16dd#X'\	.	.	.
.	16ccc#JJ 16cc#'\	.	.	.
*clefF4	*	*	*	*
=37	=37	=37	=37	=37
8B#XL 8D#X 8GG#X\	8bb#XL 8gg#X 8dd#X 8b#X`\	.	2.r	.
*clefG2	*	*	*	*
16g#X\L	(16gg#\L	<	.	.
16a\JJ	16aa\JJ	[	.	.
8g#/L	8gg#\L)	>	.	.
8f#/	8bb# 8aa 8dd#'\	] <	.	.
8e/	8ccc# 8gg# 8cc#'\	.	.	.
8d#X/J	8ddd#XJ 8bb# 8gg# 8ff#'\	[[	.	.
!!LO:LB:g=original
=38	=38	=38	=38	=38
!	!LO:TX:t=P:problem:diminuendolike accent	!	!	!
8c#/L	8eeeL 8ccc# 8gg#X 8ee`^<\	.	2.r	.
16c#/L	(16cc#\L	.	.	.
16d#X/JJ	16dd#X\JJ	.	.	.
16e/LL	16ee\LL	.	.	.
16d#/	16dd#\	.	.	.
16c#/	16cc#\	.	.	.
16B#X/JJ	16b#X\JJ	.	.	.
16c#/	16cc#\LL	.	.	.
*clefF4	*	*	*	*
16Bn\LL	16bn\	.	.	.
16A#X\	16a#X\	.	.	.
16G#X\JJ	16g#X\JJ	.	.	.
=39	=39	=39	=39	=39
8F##X\L	8f##X\L)	.	2.r	.
8d#X\	8dd#X'\	<	.	.
8e\	8ee'\	.	.	.
8G#X\	8g#X'\	.	.	.
8A#X\	8a#X'\	.	.	.
8f##XJ 8c#\	8ff##XJ 8cc#'\	.	.	.
=40	=40	=40	=40	=40
*	*^	*	*	*
8a#X\L	8aa#X/	8r	[	2.r	.
16g#XL 16d#X 16B\	4gg#X/	16dd#XLL 16b\	>	.	.
16g#JJ 16d# 16B\	.	16dd#JJ 16b\	.	.	.
8g#L 8d# 8B\	.	8dd#L 8b\	]	.	.
16G#X\L	8ryy	(16g#X\L	.	.	.
16A#X\JJ	.	16a#X\JJ	.	.	.
16B\LL	16b\LL	4ryy	.	.	.
16An\	16an\	.	.	.	.
16G#\	16g#\	.	.	.	.
16F#\JJ	16f#\JJ	.	.	.	.
*	*v	*v	*	*	*
=41	=41	=41	=41	=41
8E#X\L	8e#X/L)	.	2.r	.
8c#\	8cc#'>/	<	.	.
8dn\	8ddn'>/	.	.	.
8F#\J	8f#'>/J	.	.	.
8G#X\L	8g#X'\L	.	.	.
8e#XJ 8B\	8ee#XJ 8b'\	.	.	.
!!LO:LB:g=original
=42	=42	=42	=42	=42
*	*^	*	*	*
8g#X\L	8gg#X/	8r	[	2.r	.
16f#L 16c# 16A\	4ff#/	16cc#LL 16a\	>	.	.
16f#JJ 16c# 16A\	.	16cc#JJ 16a\	.	.	.
8f#L 8c# 8A\	.	8cc#L 8a\	]	.	.
16F#\L	8ryy	(16f#\L	.	.	.
16G#X\JJ	.	16g#X\JJ	.	.	.
16A\LL	16a\LL	4ryy	.	.	.
16Gn\	16gn\	.	.	.	.
16F#\	16f#\	.	.	.	.
16E\JJ	16e\JJ	.	.	.	.
*	*v	*v	*	*	*
=43||	=43||	=43||	=43||	=43||
!	!LO:TX:b:i:t=risoluto	!	!	!
8D\	8d/)	.	2.r	.
8r	(16aaaLL 16fff# 16ddd\	.	.	.
.	16aa\JJ	.	.	.
2D 2AA 2DD/	16aaaLL 16fff# 16ddd\	<	.	.
.	16aa\	.	.	.
.	16fff# 16ddd 16aa\	.	.	.
.	16ff#\JJ	.	.	.
.	16fff#LL 16ddd 16aa\	.	.	.
.	16ff#\	.	.	.
.	16eee 16aa 16ff#\	.	.	.
.	16ee\JJ	[[	.	.
=44	=44	=44	=44	=44
8DL 8DD'<\	16eeeLL 16aa 16ff#\	>	2.r	.
.	16ee\	.	.	.
8d 8D'<\	16ddd 16aa 16ff#\	.	.	.
.	16dd\JJ)	]	.	.
8e 8E'<\	(16dddLL 16gg\	<	.	.
.	16dd\	.	.	.
8E 8EE'<\	16ccc# 16gg\	.	.	.
.	16dd\JJ	.	.	.
8F# 8FF#'<\	16dddLL 16aa\	.	.	.
.	16dd\	.	.	.
8f#J 8F#'<\	16cccn 16aa 16dd\	.	.	.
.	16ccn\JJ	[[	.	.
!!LO:LB:g=original
=45	=45	=45	=45	=45
8g 8d 8G'<\	16bbLL 16gg 16dd\	>	2.r	.
.	16b\)	]	.	.
*	*8va	*	*	*
8r	(16dddd 16bbb 16ggg\	<	.	.
.	16ddd\JJ	.	.	.
[2G [2BB [2GG/	16ddddLL 16bbb 16ggg\	.	.	.
.	16ddd\	.	.	.
.	16bbb 16ggg 16ddd\	.	.	.
.	16bb\JJ	.	.	.
.	16bbbLL 16ggg 16ddd\	.	.	.
.	16bb\	.	.	.
.	16aaa 16ddd 16bb\	.	.	.
.	16aa\JJ	[	.	.
=46	=46	=46	=46	=46
*	*	*^	*	*
8G] 8BB] 8GG/]	16aaaLL 16ddd 16bb\	>	.	2.r	.
.	16aa\	.	.	.	.
*	*X8va	*	*	*	*
!	!	!	!LO:HP:b=2	!	!
16dLL 16B 16G'\	16ggg 16ddd 16bb\	.	<	.	.
16dJJ 16B 16G'\	16gg\JJ)	]	[	.	.
8dL 8B 8G`^<\	(16gggLL 16ddd 16bb\	<	.	.	.
.	16gg\	.	.	.	.
8d 8B 8G\	16fff# 16bb\	.	.	.	.
.	16ff#\JJ	.	.	.	.
8d 8B 8G\	16fff#LL 16bb\	.	.	.	.
.	16ff#\	.	.	.	.
8c#XJ 8B 8G\	16eee#X 16bb\	.	.	.	.
.	16ee#X\JJ	[[	.	.	.
*	*	*v	*v	*	*
=47	=47	=47	=47	=47
8c#L 8A#X 8F#\	8fff#L 8aa#X 8ff#`^<\)	.	2.r	.
16c#\L	16ccc#L 16cc#'\	.	.	.
16c#\JJ	16ccc#JJ 16cc#'\	.	.	.
8c#\L	8ccc#L 8cc#`\	.	.	.
24A#\L	(24a#X\L	.	.	.
24B\	24b\	.	.	.
24B#X\JJ	24b#X\JJ	.	.	.
8c#\L	8cc#\L)	.	.	.
8GJ 8C# 8GG\	8ee#XJ 8bn 8e#X'\	.	.	.
!!LO:PB:g=original
=48	=48	=48	=48	=48
8F#L 8C# 8FF#\	8ff#L 8a#X 8f#`\	.	2.r	.
16c#\L	16ccc#L 16cc#'\	.	.	.
16c#\JJ	16ccc#JJ 16cc#'\	.	.	.
8c#\L	8ccc#L 8cc#`\	.	.	.
*Xtuplet	*Xtuplet	*	*	*
24A#X\L	(24a#\L	.	.	.
24B\	24b\	.	.	.
24B#X\JJ	24b#X\JJ	.	.	.
8c#\L	8cc#\L)	.	.	.
8GJ 8C# 8GG\	8bbJ 8ee#X 8bn'\	.	.	.
=49	=49	=49	=49	=49
8F# 8C# 8FF#/	8aa#X 8ff# 8a#X`\	.	2.r	.
8GL 8C# 8GG/	8ee#XL 8b 8e#X'\	<	.	.
8F# 8C# 8FF#/	8ff# 8a# 8f#'\	.	.	.
8G 8C# 8GG/	8ee# 8b 8e#'\	.	.	.
8F# 8C# 8FF#/	8ff# 8a# 8f#'\	.	.	.
8GJ 8C# 8GG/	8bbJ 8ee# 8b'\	[[	.	.
=50	=50	=50	=50	=50
8F# 8C# 8FF#/	8aa#X 8ff# 8a#X`^<\	.	2.r	.
8GL 8C# 8GG/	8bbL 8ee#X 8b'\	<	.	.
8F# 8C# 8FF#/	8aa# 8ff# 8a#'\	.	.	.
8G 8C# 8GG/	8bb 8ee# 8b'\	.	.	.
8F# 8C# 8FF#/	8aa# 8ff# 8a#'\	.	.	.
8GJ 8C# 8GG/	8eee#XJ 8bb 8ee#'\	[[	.	.
=51	=51	=51	=51	=51
8F# 8C# 8FF#/	8fff# 8aa#X 8ff#`^<\	.	2.r	.
4f#\	(4ff#\	.	.	.
8g\L	8gg\L	.	.	.
8c#\	8cc#\	.	.	.
8d\J	8dd\J	.	.	.
=52	=52	=52	=52	=52
8f#\	8ff#\)	.	2.r	.
4e\	4ee^\	.	.	.
8e\L	(8ee\L	.	.	.
8A#X\	8a#X\	.	.	.
8B\J	8b\J	.	.	.
!!LO:LB:g=original
=53	=53	=53	=53	=53
8d\	8dd\)	.	2.r	.
4c#\	4cc#^\	.	.	.
16E#X\LL	N(>16e#X/LL	.	.	.
16F#\JJ	16f#/JJ	.	.	.
16An\LL	16an/LL	.	.	.
16G\	16g/	.	.	.
16F#\	16f#/	.	.	.
16E#\JJ	16e#/JJ	.	.	.
=54	=54	=54	=54	=54
16G\LL	16g/LL	.	2.r	.
16F#\	16f#/	.	.	.
16En\	16en/	.	.	.
16D\JJ	16d/JJ	.	.	.
!	!LO:TX:t=P:problem:mixed beam	!	!	!
16C#\LL	16c#\LL	.	.	.
16BB\	16B</	.	.	.
16AA#X\	16A#X</	.	.	.
16GG\JJ	16G</JJ	.	.	.
16FF#\LL	16F#</LL	.	.	.
16EE\	16E</	.	.	.
16DD\	16D</	.	.	.
16CC#\JJ	16C#</JJ	.	.	.
=55	=55	=55	=55	=55
2BB 2BBB/N)	8r	fp	2.r	.
.	16f#LL 16d 16B'>/	.	.	.
.	16f#JJ 16d 16B'>/	.	.	.
.	8f#L 8d 8B'>/	.	.	.
.	8bJ 8f# 8d 8B'>/	.	.	.
4BB 4EE/	8r	.	.	.
.	8b 8e 8c# 8B/	.	.	.
=56	=56	=56	=56	=56
2BB 2BBB/	8r	.	2.r	.
.	16f#LL 16d 16B'>/	.	.	.
.	16f#JJ 16d 16B'>/	.	.	.
.	8f#L 8d 8B'>/	.	.	.
.	8bJ 8f# 8d 8B'>/	.	.	.
4BB 4EE/	8r	.	.	.
.	8b 8e 8c# 8B/	.	.	.
=57||	=57||	=57||	=57||	=57||
!	!	!	!LO:TX:a:B:t=C:rj	!
2BB 2BBB/	8r	.	4.f#/	p >
.	16f#LL 16d 16B'>/	.	.	.
.	16f#JJ 16d 16B'>/	.	.	.
.	8f#L 8d 8B'>/	.	.	]
.	8bJ 8f# 8d 8B'>/	.	(8b/L	<
4BB 4EE/	8r	.	8d/	.
.	8b 8e 8c# 8B/	.	8e/J)	[
!!LO:LB:g=original
=58	=58	=58	=58	=58
2BB 2BBB/	8r	.	4.f#/	>
.	16f#LL 16d 16B'>/	.	.	.
.	16f#JJ 16d 16B'>/	.	.	.
.	8f#L 8d 8B'>/	.	.	.
.	8bJ 8f# 8d 8B'>/	.	16e/LL	] <
.	.	.	16f#/JJ	.
4G\	8r	<	16a/LL	.
.	.	.	16g/	.
.	8b 8e 8c#/	.	16f#/	.
.	.	.	16e/JJ	.
=59	=59	=59	=59	=59
4F#\	8r	.	16g/LL	.
.	.	.	16f#/	.
.	8b 8f# 8d/	.	16e/	.
.	.	.	16d/JJ	.
8c#L 8F#\	8a#XL 8e/	.	16f#/LL	.
.	.	.	16e/	.
8BJ 8BB\	8b 8d/	.	16d/	.
.	.	.	16B/JJ	.
.	.	.	(8qB/	.
8EE/L	8g 8c# 8B/	.	(4c#t<;/)	.
8FF#/J	[8f#J 8e 8A#X/	[[	.	.
.	.	.	16qqB/LL	[
.	.	.	16qqd/	.
.	.	.	16qqc#/JJ)	[[
=60	=60	=60	=60	=60
4BBB/	8f#]L 8d 8B/	>	4B/	>
.	16f#L 16d 16B'>/	.	.	.
.	16f#JJ 16d 16B'>/	.	.	.
!	!	!	!LO:MO:mod=!null:null	!
!	!	!	!LO:TX:a:i:t=dolce	!
4r	4f# 4d 4B/	.	8r	]
!	!	!	!LO:MO:mod=!LO&colon;TX&colon;a&colon;i&colon;t=dolce	!
!	!	!	!null	!
.	.	]	((8f#\L	p <
4r	4r	.	8ff#\)	.
.	.	.	8ff#'\J)	[
=61	=61	=61	=61	=61
(<2.d\	8r	p >	2ff#\	>
.	16ff#LL 16b 16f#'\	.	.	.
.	16ff#JJ 16b 16f#'\	.	.	.
.	8ff#L 8b 8f#'\	]	.	.
.	8ff# 8b 8f#'\	<	.	.
.	8ff# 8b 8f#'\	.	(16ee\LL	] <
.	.	.	16dd\	.
.	8ff#J 8b 8f#'\	[[	16cc#\	.
.	.	.	16b\JJ)	[[
=62	=62	=62	=62	=62
*^	*	*	*	*
2c#/	4G\	8r	>	(4b\	>
.	.	(8ee#X 8b 8e#X\	.	.	.
.	4F#\)	4ff# 4a#X 4f#\)	.	8a#X\L)	.
.	.	.	]	((8g\	] <
4r	4ryy	4r	.	8gg\)	.
.	.	.	.	8gg'\J)	[[
*v	*v	*	*	*	*
=63	=63	=63	=63	=63
(<2.e\	8r	>	2gg\	>
.	16ggLL 16cc# 16a#X 16g'\	.	.	.
.	16ggJJ 16cc# 16a# 16g'\	.	.	.
.	8ggL 8cc# 8a# 8g'\	]	.	.
.	8gg 8cc# 8a# 8g'\	<	.	]
.	8gg 8cc# 8a# 8g'\	.	(16ff#\LL	<
.	.	.	16ee\	.
.	8ggJ 8cc# 8a# 8g'\	[[	16dd\	.
.	.	.	16cc#\JJ)	[
!!LO:LB:g=original
=64	=64	=64	=64	=64
*^	*	*	*	*^
8r	4d#X\	8r	>	(4cc#\	>	.
[8f#/	.	(8aa 8cc# 8a\	.	.	.	.
4f#] 4G#X\)	4ryy	4gg#X 4b#X 4g#X\)	.	8b#X\L)	]	.
!	!	!	!	!	!	!LO:HP:t=con fuoco cresc.
.	.	.	]	(8bb#XJ (8b#\	<	<
4r	4ryy	4r	.	8aaaL 8aa\)	.	.
.	.	.	.	8aaaJ 8aa'\)	[[	.
*v	*v	*	*	*	*v	*v
=65	=65	=65	=65	=65
*tremolo	*tremolo	*	*	*
32BBB#X/LLL	(>32f#LLL 32d#X/	<	2aaa 2aa\	>
32BB#X/	32A/	.	.	.
32BBB#/	32f# 32d#/	.	.	.
32BB#/	32A/	.	.	.
32BBB#/	32f# 32d#/	.	.	.
32BB#/	32A/	.	.	.
32BBB#/	32f# 32d#/	.	.	.
32BB#/	32A/	.	.	.
32BBB#/	32f# 32d#/	.	.	.
32BB#/	32A/	.	.	.
32BBB#/	32f# 32d#/	.	.	.
32BB#/	32A/	.	.	.
32BBB#/	32f# 32d#/	.	.	.
32BB#/	32A/	.	.	.
32BBB#/	32f# 32d#/	.	.	.
32BB#/	32A/JJJ	.	.	.
32BBB#/	32f#LLL 32dn/	.	16gggLL 16gg\	] <
32BB#/	32A/	.	.	.
32BBB#/	32f# 32d/	.	16fff# 16ff#\	.
32BB#/	32A/	.	.	.
32BBB#/	32f# 32d/	.	16eee#X 16ee#X\	.
32BB#/	32A/	.	.	.
32BBB#/	32f# 32d/	.	16fff#JJ 16ff#\	[[
32BB#/JJJ	32A/JJJ	.	.	.
=66	=66	=66	=66	=66
*	*	*	*8va	*
32CC#/LLL	32f#LLL 32c#/	.	2cccc# 2ccc#\	>
32C#/	32A/	.	.	.
32CC#/	32f# 32c#/	.	.	.
32C#/	32A/	.	.	.
32CC#/	32f# 32c#/	.	.	.
32C#/	32A/	.	.	.
32CC#/	32f# 32c#/	.	.	.
32C#/	32A/	.	.	.
32CC#/	32f# 32c#/	.	.	.
32C#/	32A/	.	.	.
32CC#/	32f# 32c#/	.	.	.
32C#/	32A/	.	.	.
32CC#/	32f# 32c#/	.	.	.
32C#/	32A/	.	.	.
32CC#/	32f# 32c#/	.	.	.
32C#/	32A/	.	.	.
32CC#/	32f# 32c#/	.	(8cccc#L 8ccc#\	] <
32C#/	32A/	.	.	.
32CC#/	32f# 32c#/	.	.	.
32C#/	32A/	.	.	.
32CC#/	32f# 32c#/	.	8ddddJ 8ddd\)	[[
32C#/	32A/	.	.	.
32CC#/	32f# 32c#/	.	.	.
32C#/JJJ	32A/JJJ	.	.	.
=67	=67	=67	=67	=67
*8ba	*	*	*	*
!	!	!	!LO:TX:t=P:problem:diminuendolike accent	!
32CCC#/LLL	32e#XLLL 32c#/	f >	16ddddKL 16ddd^<\	ff
32CC#/	32B/	.	.	.
*	*	*	*X8va	*
32CCC#/	32e# 32c#/	.	16r	.
32CC#/	32B/	.	.	.
32CCC#/	32e# 32c#/	.	8e#X\J	<
32CC#/	32B/	.	.	.
32CCC#/	32e# 32c#/	.	.	.
32CC#/	32B/	.	.	[
32CCC#/	32e# 32c#/	.	(4.a;/	>
32CC#/	32B/	.	.	.
32CCC#/	32e# 32c#/	.	.	.
32CC#/	32B/	.	.	.
32CCC#/	32e# 32c#/	.	.	.
32CC#/	32B/	.	.	.
32CCC#/	32e# 32c#/	.	.	.
32CC#/	32B/	.	.	.
32CCC#/	32e# 32c#/	.	.	.
32CC#/	32B/	.	.	.
32CCC#/	32e# 32c#/	.	.	.
32CC#/	32B/	.	.	.
32CCC#/	32e# 32c#/	.	8g#X/)	.
32CC#/	32B/	.	.	.
32CCC#/	32e# 32c#/	.	.	.
32CC#/JJJ	32B/JJJ	.	.	.
*Xtremolo	*Xtremolo	*	*	*
*X8ba	*	*	*	*
=68	=68	=68	=68	=68
4FF# 4FFF#/	8f# 8c# 8A/)	]	4.f#/	]
.	16f#LL 16F#'>/	<	.	.
.	16f#JJ 16F#'>/	[	.	.
8r	8f# 8F#'>^/	.	.	.
8EL 8C#/	8f#L 8A#X 8F#'>/	<	16f#/LL	p
.	.	.	16f#/JJ	<
8D 8BB/	8f# 8B 8F#'>/	.	8f#/L	.
8C#J 8AA#X/	8f#J 8e 8c# 8F#'>/	[	8f#/J	[
=69	=69	=69	=69	=69
2BB 2BBB/	8r	>	4.f#/	>
.	16f#LL 16d 16B'>/	.	.	.
.	16f#JJ 16d 16B'>/	.	.	.
.	8f#L 8d 8B'>/	]	.	.
.	8f#J 8d 8B'>/	.	(8b/L	] <
4BB 4EE/	8r	.	8d/	.
.	8b 8e 8c# 8B/	.	8e/J)	[[
!!LO:LB:g=original
=70	=70	=70	=70	=70
2BB 2BBB/	8r	.	4.f#/	>
.	16bLL 16f# 16d 16B'>/	.	.	.
.	16bJJ 16f# 16d 16B'>/	.	.	.
.	8bL 8f# 8d 8B'>/	.	.	]
.	8bJ 8f# 8d 8B'>/	.	16e/LL	<
.	.	.	16f#/JJ	.
!	!	!	!LO:TUP:b:r=8	!
4G\	8r	<	24a/LL	.
.	.	.	24g/	.
.	.	.	24f#/J	.
!	!	!	!LO:TUP:b:r=8	!
.	8b 8e 8c#/	.	24e/L	.
.	.	.	24f#/	.
.	.	.	24g/JJ	.
=71	=71	=71	=71	=71
!	!	!	!LO:MO:mod=*null:null	!
*	*	*	*Xtuplet	*
!	!	!	!LO:MO:mod=!LO&colon;TUP&colon;b&colon;r=8	!
!	!	!	!null	!
4.F#\	8r	.	24f#/LL	.
.	.	.	24e/	.
.	.	.	24d/J	.
!	!	!	!LO:MO:mod=!LO&colon;TUP&colon;b&colon;r=8	!
!	!	!	!null	!
.	16bLL 16f# 16d'>/	.	24c#/L	.
.	.	.	24d/	.
.	16bJJ 16f# 16d'>/	.	.	.
.	.	.	24e/JJ	.
!	!	!	!LO:MO:mod=!LO&colon;TUP&colon;b&colon;r=8	!
!	!	!	!null	!
.	8bL 8f# 8d'>/	.	24d/LL	.
.	.	.	24c#/	.
.	.	.	24B/J	.
!	!	!	!LO:MO:mod=!LO&colon;TUP&colon;b&colon;r=8	!
!	!	!	!null	!
8G#X 8FF#/	8e#XJ 8d 8B/	.	24A#X/L	.
.	.	.	24B/	.
.	.	.	24d/JJ	.
.	.	.	(8qd/	.
8GnL 8FF#/	8enL 8c# 8B/	.	(4c#t<;/)	.
8F#/J	8A#X/J	[[	.	.
.	.	.	16qqB/LL	[
.	.	.	16qqd/	.
.	.	.	16qqc#/JJ)	[[
=72	=72	=72	=72	=72
!	!	!	!LO:TX:t=P:problem:diminuendolike accent	!
4BB 4BBB/	8r	>	4B^/	.
.	16dLL 16B 16F#'>/	.	.	.
.	16dJJ 16B 16F#'>/	.	.	.
4r	8d 8B 8F#'>/	]	8r	.
!	!	!	!LO:TX:a:i:t=dolce	!
!	!	!	!LO:TX:a:B:t=D	!
.	8r	.	((8f#\L	p <
4r	4r	.	8ff#\)	.
.	.	.	8ff#'\J)	[[
=73	=73	=73	=73	=73
(<2.d\	8r	p >	2ff#\	>
.	16ff#LL 16b 16f#'\	.	.	.
.	16ff#JJ 16b 16f#'\	.	.	.
.	8ff#L 8b 8f#'\	]	.	.
.	8ff# 8b 8f#'\	<	.	.
.	8ff# 8b 8f#'\	.	(16ee\LL	] <
.	.	.	16dd\	.
.	8ff#J 8b 8f#'\	[[	16cc#\	.
.	.	.	16b\JJ)	[
=74	=74	=74	=74	=74
*^	*	*	*	*
2c#/	4G\	8r	>	(4b\	>
.	.	(8ee#X 8b 8e#X\	.	.	.
.	4F#\)	4ff# 4a#X 4f#\)	.	8a#X\L)	]
.	.	.	]	((8g\	<
4r	4ryy	4r	.	8gg\)	.
.	.	.	.	8gg'\J)	[[
*v	*v	*	*	*	*
!!LO:PB:g=original
=75	=75	=75	=75	=75
(<2.e\	8r	>	2gg\	>
.	16ggLL 16cc# 16a#X 16g'\	.	.	.
.	16ggJJ 16cc# 16a# 16g'\	.	.	.
.	8ggL 8cc# 8a# 8g'\	]	.	.
.	8gg 8cc# 8a# 8g'\	.	.	.
.	8gg 8cc# 8a# 8g'\	.	(16ff#\LL	] <
.	.	.	16ee\	.
.	8ggJ 8cc# 8a# 8g'\	.	16dd\	.
.	.	.	16cc#\JJ)	[[
=76	=76	=76	=76	=76
*^	*	*	*	*^
8r	4d#X\	8r	>	(4cc#\	>	.
[8f#/	.	(8aa 8cc# 8a\	.	.	.	.
4f#] 4G#X\)	4ryy	4gg#X 4b#X 4g#X\)	.	8b#X\L)	]	.
!	!	!	!	!	!	!LO:HP:t=con fuoco cresc.
.	.	.	]	(8bb#XJ (8b#\	<	<
4r	4ryy	4r	.	8aaaL 8aa\)	.	.
.	.	.	.	8aaaJ 8aa'\)	[	.
*v	*v	*	*	*	*v	*v
=77	=77	=77	=77	=77
*tremolo	*tremolo	*	*	*
32BBB#X/LLL	(>32f#LLL 32d#X/	<	2aaa 2aa\	>
32BB#X/	32A/	.	.	.
32BBB#/	32f# 32d#/	.	.	.
32BB#/	32A/	.	.	.
32BBB#/	32f# 32d#/	.	.	.
32BB#/	32A/	.	.	.
32BBB#/	32f# 32d#/	.	.	.
32BB#/	32A/	.	.	.
32BBB#/	32f# 32d#/	.	.	.
32BB#/	32A/	.	.	.
32BBB#/	32f# 32d#/	.	.	.
32BB#/	32A/	.	.	.
32BBB#/	32f# 32d#/	.	.	.
32BB#/	32A/	.	.	.
32BBB#/	32f# 32d#/	.	.	.
32BB#/	32A/JJJ	.	.	.
32BBB#/	32f#LLL 32dn/	.	16gggLL 16gg\	] <
32BB#/	32A/	.	.	.
32BBB#/	32f# 32d/	.	16fff# 16ff#\	.
32BB#/	32A/	.	.	.
32BBB#/	32f# 32d/	.	16eee#X 16ee#X\	.
32BB#/	32A/	.	.	.
32BBB#/	32f# 32d/	.	16fff#JJ 16ff#\	[[
32BB#/JJJ	32A/JJJ	.	.	.
=78	=78	=78	=78	=78
*	*	*	*8va	*
32CC#/LLL	32f#LLL 32c#/	.	2cccc# 2ccc#\	>
32C#/	32A/	.	.	.
32CC#/	32f# 32c#/	.	.	.
32C#/	32A/	.	.	.
32CC#/	32f# 32c#/	.	.	.
32C#/	32A/	.	.	.
32CC#/	32f# 32c#/	.	.	.
32C#/	32A/	.	.	.
32CC#/	32f# 32c#/	.	.	.
32C#/	32A/	.	.	.
32CC#/	32f# 32c#/	.	.	.
32C#/	32A/	.	.	.
32CC#/	32f# 32c#/	.	.	.
32C#/	32A/	.	.	.
32CC#/	32f# 32c#/	.	.	.
32C#/	32A/	.	.	.
32CC#/	32f# 32c#/	.	(8cccc#L 8ccc#\	] <
32C#/	32A/	.	.	.
32CC#/	32f# 32c#/	.	.	.
32C#/	32A/	.	.	.
32CC#/	32f# 32c#/	.	8ddddJ 8ddd\)	[[
32C#/	32A/	.	.	.
32CC#/	32f# 32c#/	.	.	.
32C#/JJJ	32A/JJJ	.	.	.
=79	=79	=79	=79	=79
*8ba	*	*	*	*
!	!	!	!LO:TX:t=P:problem:diminuendolike accent	!
32CCC#/LLL	32e#XLLL 32c#/	f >	16ddddKL 16ddd^<\	fff
32CC#/	32B/	.	.	.
*	*	*	*X8va	*
32CCC#/	32e# 32c#/	.	16r	.
32CC#/	32B/	.	.	.
32CCC#/	32e# 32c#/	.	8e#X\J	<
32CC#/	32B/	.	.	.
32CCC#/	32e# 32c#/	.	.	.
32CC#/	32B/	.	.	[
32CCC#/	32e# 32c#/	.	(4.a;/	>
32CC#/	32B/	.	.	.
32CCC#/	32e# 32c#/	.	.	.
32CC#/	32B/	.	.	.
32CCC#/	32e# 32c#/	.	.	.
32CC#/	32B/	.	.	.
32CCC#/	32e# 32c#/	.	.	.
32CC#/	32B/	.	.	.
32CCC#/	32e# 32c#/	.	.	.
32CC#/	32B/	.	.	.
32CCC#/	32e# 32c#/	.	.	.
32CC#/	32B/	.	.	.
32CCC#/	32e# 32c#/	.	8g#X/)	.
32CC#/	32B/	.	.	.
32CCC#/	32e# 32c#/	.	.	.
32CC#/JJJ	32B/JJJ	.	.	.
*Xtremolo	*Xtremolo	*	*	*
*X8ba	*	*	*	*
=80	=80	=80	=80	=80
4FF# 4FFF#/	8f# 8c# 8A/)	]	4f#/	.
.	16f#LL 16F#'>/	<	.	.
.	16f#JJ 16F#'>/	[	.	.
!	!LO:TX:t=P:problem:diminuendolike accent	!	!	!
4r	4f# 4F#^/	.	8r	]
.	.	.	((8f#\L	p <
4r	8r	.	8ff#\)	.
.	(>8A#X/	p	8ff#'\J)	[[
!!LO:LB:g=original
=81	=81	=81	=81	=81
8E 8C# 8FF#/	8e 8B 8G/)	.	([4gg\	>
16eLL 16c#\	16eeLL 16b 16g'\	.	.	.
16eJJ 16c#\	16eeJJ 16b 16g'\	.	.	.
8eL 8c#\	8eeL 8b 8g'\	.	16gg\LL]	]
.	.	.	16ee\	.
8e 8c#\	8ee 8b 8g'\	<	16cc#\	<
.	.	.	16dd\JJ	.
8e 8c#\	8ee 8b 8g'\	.	16ff#\LL	.
.	.	.	16ee\	.
8eJ 8c#\	8eeJ 8b 8g'\	[[	16dd\	.
.	.	.	16cc#\JJ)	[[
=82	=82	=82	=82	=82
4e#X 4d 4B\	(4ee#X 4b 4g#X\	>	((4b\	>
8c# 8F#\	8ff# 8a#X 8f#\)	]	8a#X\L)	]
8r	8r	.	(8f#\	<
4r	4r	.	8ff#\)	.
.	.	.	8ff#'\J)	[[
=83	=83	=83	=83	=83
8En 8C# 8FF#/	8en 8B 8Gn/	.	([4gg\	>
16eLL 16c#\	16eeLL 16b 16g'\	.	.	.
16eJJ 16c#\	16eeJJ 16b 16g'\	.	.	.
8eL 8c#\	8eeL 8b 8g'\	.	16gg\LL]	]
.	.	.	16ee\	<
8e 8c#\	8ee 8b 8g'\	<	16cc#\	.
.	.	.	16dd\JJ	.
!	!	!	!LO:MO:mod=!LO&colon;TUP&colon;b&colon;r=8	!
!	!	!	!null	!
8e 8c#\	8ee 8b 8g'\	.	24ff#\LL	.
.	.	.	24ee\	.
.	.	.	24eee\J	.
!	!	!	!LO:MO:mod=!LO&colon;TUP&colon;b&colon;r=8	!
!	!	!	!null	!
8eJ 8c#\	8eeJ 8b 8g'\	[[	24ccc#\L	.
.	.	.	24bb\	.
.	.	.	24ccc#\JJ)	[[
=84	=84	=84	=84	=84
!	!LO:TX:b:i:t=poco rall.	!	!LO:TX:b:i:t=poco rall.	!
4e#X 4d 4B\	(4ee#X 4b 4g#X\	>	(4bb\	>
!	!	!	!	!LO:MO:null:mod=]
8c# 8F#\	8ff# 8a#X 8f#\)	]	4aa#X\)	.
*	*clefF4	*	*	*
!	!	!	!	!LO:MO:mod=.
16FF#LL 16FFF#/	16F#'\LL	mf <	.	]
16FF#JJ 16FFF#/	16F#'\JJ	.	.	.
8FF#L 8FFF#/	8F#'\L	.	16r	.
!	!	!	!	!LO:DY:rj
.	.	.	16f#/LL	mf <
8FF#J 8FFF#/	8F#'\J	[[	16e#X/	.
.	.	.	16f#/JJ	[[
!!LO:LB:g=original
=85	=85	=85	=85	=85
8GG 8GGG/	8G\	f	4g 4G/	f >
*	*clefG2	*	*	*
16gLL 16d 16B 16G\	16bbLL 16gg 16dd 16b'\	>	.	.
16gJJ 16d 16B 16G\	16bbJJ 16gg 16dd 16b'\	.	.	.
8g 8d 8B 8G\	8bb 8gg 8dd 8b'\	]	4bb\	] p
16GGLL 16GGG/	16G'>/LL	mf <	.	.
16GGJJ 16GGG/	16G'>/JJ	.	.	.
8GGL 8GGG/	8G'>/L	.	16r	.
!	!	!	!	!LO:DY:rj
.	.	.	16g/LL	mf <
8GGJ 8GGG/	8G'>/J	[[	16f#/	.
.	.	.	16g/JJ	[[
=86	=86	=86	=86	=86
8GG#X 8GGG#X/	8G#X/	f	4g#X 4G#X/	f >
16fnLL 16d 16B-X 16G#X\	16bb-XLL 16ffn 16dd 16b-X'\	>	.	.
16fJJ 16d 16B- 16G#\	16bb-JJ 16ff 16dd 16b-'\	.	.	.
8f 8d 8B- 8G#\	8bb- 8ff 8dd 8b-'\	]	4bb-X\	] p
16GG#LL 16GGG#/	16G#'>/LL	<	.	.
16GG#JJ 16GGG#/	16G#'>/JJ	.	.	.
8GG#L 8GGG#/	8G#'>/L	.	16r	.
.	.	.	16g#/LL	<
8GG#J 8GGG#/	8G#'>/J	.	16f##X/	.
.	.	.	16g#/JJ	[
=87	=87	=87	=87	=87
!	!	!	!LO:TX:a:B:t=E:rj	!
!	!LO:TX:a:i:t=a tempo	!	!LO:TX:a:i:t=a tempo	!LO:DY:rj
8AA 8AAA/	8a 8e 8c# 8A/	[	8A^\L	mf <
8r	8r	.	8aa^\	.
8AA 8AAA/	8g#X 8d 8B/	.	8bb^\	.
8r	8r	.	8B^\	.
8AA 8AAA/	8gn 8e 8c#/	.	8c#^\	.
8r	8r	.	8ccc#^\J	[
=88	=88	=88	=88	=88
.	.	.	(8qccc#/	.
4DD 4DDD/	8r	mf	(8eee'^<\L)	f
.	16f#LL 16d 16A'/	>	8ddd'^<\J)	.
.	16f#JJ 16d 16A'/	.	.	.
4r	8f#L 8d 8A'/	.	4.aa\	>
.	8f#J 8d 8A'/	]	.	.
!	!LO:TX:t=P:problem:mixed beam	!LO:MO:null:mod=mp	!	!
4ryy	8FF#<L 8FFF#</	.	.	.
!	!	!LO:MO:mod=.	!	!
.	8f#J 8d 8A#X\	mp	(8aa#X'\	] mf
!!LO:LB:g=original
=89	=89	=89	=89	=89
.	.	.	(16qqaa#X/LL	.
.	.	.	16qqccc#/JJ	.
!	!LO:TX:t=P:problem:mixed beam	!	!LO:TX:b:i:t=grazioso	!
2.ryy	8GG<L 8GGG</	.	8bb\L))	.
.	8e 8d 8B\	.	16ff#'\L	.
.	.	.	(16aan\JJ	.
.	.	.	(16qqgg/LL	.
.	.	.	16qqaa/JJ	.
.	8EE< 8EEE</	.	8gg\L))	.
.	8g 8e 8d 8B\	.	16b'\L	.
.	.	.	(16dd\JJ	.
.	.	.	(16qqcc#/LL	.
.	.	.	16qqdd/JJ	.
.	8AA< 8AAA</	.	8cc#\L))	.
!	!LO:TX:b:i:t=rit.	!	!LO:TX:b:i:t=rit.	!
.	(8gJ 8e 8c# 8A'\	.	16b#X'\L	.
.	.	.	16cc#'\JJ	.
=90	=90	=90	=90	=90
.	.	.	(8qcc#/	.
8DD'\L	8f#L 8d'/	>	(16bb\LL)	>
.	.	.	16aa\	.
8A'\	16r	.	16dd\	.
.	16gJk 16c#'/	.	16ee\JJ)	.
8D'\	4f# 4d/)	.	(4.ff#\	]
8AA'\J	.	.	.	<
4DD/	8r	]	.	.
*	*	*	*tuplet	*
!	!LO:TX:a:i:t=a tempo	!	!LO:TX:a:i:t=a tempo	!
.	8g#X 8fn 8d/	< [[	24b\LL	.
.	.	.	24cc#\	.
.	.	.	24b\JJ	[[
=91	=91	=91	=91	=91
4AA 4AAA/	4a 4e 4c#/	f	8a/L)	f
.	.	.	16A'/L	ff
.	.	.	16aa'/JJ	.
8AAL 8AAA/	8g#XL 8d 8B/	.	16bb'/LL	.
.	.	.	16B'/	.
8AA 8AAA/	8gn 8e 8c#/	.	16c#'/	.
.	.	.	16ccc#'/JJ	.
8AA 8AAA/	8f# 8d/	.	16ddd'/LL	.
.	.	.	16d'/	.
8AAJ 8AAA/	8eJ 8c#/	.	16e'/	.
.	.	.	16eee'/JJ	.
=92	=92	=92	=92	=92
!	!	!	!LO:TX:b:i:t=largamente	!
2.GG#X 2.GGG#X/	2.fn 2.d 2.B/	.	(16fffn\LL	>
.	.	.	16ddd\)	.
.	.	.	16bb\	.
.	.	.	16gg#X\JJ	.
.	.	.	16ffn\LL	.
.	.	.	16dd\	.
.	.	.	16b\	.
.	.	.	16g#X\JJ	.
!	!	!	!LO:MOR:acc=none	!
.	.	.	(8fnm/L	.
.	.	.	16e/L)	.
.	.	.	16d/JJ	]
!!LO:PB:g=original
=93	=93	=93	=93	=93
2.AA 2.AAA/	2.f#X 2.d 2.A/	.	(16A/LL	<
.	.	.	16a/JJ)	[
.	.	.	16bbb'\LL	>
.	.	.	16aaa'\JJ	.
.	.	.	16fff#X'\LL	.
.	.	.	16ddd'\	.
.	.	.	16aa'\	.
.	.	.	16ff#'\JJ	.
.	.	.	16dd'/LL	.
.	.	.	16a'/	.
.	.	.	16f#'/	.
.	.	.	16d'/JJ	]]
=94	=94	=94	=94	=94
2.AA 2.AAA/	(>2.g 2.c# 2.A/	>	8G#X'/L	<
.	.	.	8A'/J	[
.	.	.	(4.f#;/	>
.	.	.	8e/)	.
=95	=95	=95	=95	=95
!	!	!	!LO:TX:a:i:t=ben ritmico e molto largamente	!
4D 4DD/	8f# 8d 8A/)	]	8d/L	]
.	4f# 4d 4A/	.	[8d/J	.
4D 4DD/	.	.	16d/LL]	<
.	.	.	16e/	.
.	8f#L 8d 8A/	<	16f#/	.
.	.	.	16c#/JJ	.
4D 4DD/	8f# 8d 8A/	.	16e/LL	.
.	.	.	16d/	.
.	8f#J 8d 8A/	[	16c#/	.
.	.	.	16B/JJ	[
=96	=96	=96	=96	=96
!	!	!	!LO:TX:t=P:problem:diminuendolike accent	!
4D 4DD/	8f# 8d 8A^/	.	(16.A^/LL	.
.	.	.	32f#/K)	<
.	4f# 4d 4A/	.	(16d/	.
.	.	.	16a/JJ)	.
4D 4DD/	.	.	(16.f#\LL	.
.	.	.	32dd\K)	.
.	8f#L 8d 8A/	<	(16a\	.
.	.	.	16ff#\JJ)	.
4D 4DD/	8f# 8d 8A/	.	(16.dd\LL	.
.	.	.	32aa\K)	.
.	8f#J 8d 8A/	[	(16ff#\	.
.	.	.	16ddd\JJ)	[[
=97	=97	=97	=97	=97
!	!LO:TX:t=P:problem:diminuendolike accent	!	!LO:TX:t=P:problem:diminuendolike accent	!
4D 4DD/	4f# 4d 4A^/	.	8aa^<\L	.
.	.	.	(8qdd/	<
!	!	!	!LO:MO:mod=*null:null	!
*	*	*	*Xtuplet	*
.	.	.	(24ddd\L)	.
.	.	.	24aa\	.
.	.	.	24ff#\JJ)	[
!	!	!	!LO:TX:t=P:problem:diminuendolike accent	!
4D 4DD/	4f# 4d 4A^/	.	8dd^<\L	.
.	.	.	(8qff#/	<
.	.	.	(24fff#\L)	.
.	.	.	24ddd\	.
.	.	.	24aa\JJ)	[
!	!	!	!LO:TX:t=P:problem:diminuendolike accent	!
4D 4DD/	4f# 4d 4A^/	.	8ff#^<\L	.
.	.	.	(8qaa/	<
.	.	.	(24aaa\L)	.
.	.	.	24fff#\	.
.	.	.	24ddd\JJ)	[[
!!LO:LB:g=original
=98	=98	=98	=98	=98
!	!	!	!LO:TX:t=P:problem:diminuendolike accent	!
4D 4DD/	8r	.	16aa^<\LL	.
.	.	.	16d\	<
.	8f#L 8d 8A/	<	16f#\	.
.	.	.	16a\JJ	.
4r	8a 8f# 8d/	.	16dd\LL	.
.	.	.	16ff#\	.
.	8ddJ 8a 8f#/	.	16aa\	.
.	.	.	16ddd\JJ	.
8r	8ff#L 8dd 8a\	.	16fff#\LL	.
.	.	.	16aaa\	.
8BB 8BBB/	8bbJ 8ff# 8dd#X 8b 8a\	[[	16bbb\	.
.	.	.	16fff#\JJ	[[
=99	=99	=99	=99	=99
4E 4EE/	8ee 8b 8g^<\	.	(16aaa\LL	>
.	.	.	16ggg\JJ)	.
.	4g 4e 4B/	.	[8e/	] <
4E 4EE/	.	.	16e/LL]	.
.	.	.	16f#/	.
.	8gL 8e 8B/	<	16g/	.
.	.	.	16d#X/JJ	.
4E 4EE/	8g 8e 8B/	.	16f#/LL	.
.	.	.	16e/	.
.	8gJ 8e 8B/	[	16dn/	.
.	.	.	16cn/JJ	[[
=100	=100	=100	=100	=100
!	!	!	!LO:TX:t=P:problem:diminuendolike accent	!
4E 4EE/	8g 8e 8B^/	.	(16.B^/LL	.
.	.	.	32g/K)	<
.	4g 4e 4B/	.	(16e/	.
.	.	.	16b/JJ)	.
4.E 4.EE/	.	.	(16.g\LL	.
.	.	.	32ee\K)	.
.	8gL 8e 8B/	<	(16b\	.
.	.	.	16gg\JJ)	.
.	8g 8e 8B/	.	(16.ee\LL	.
.	.	.	32bb\K)	.
8D 8DD/	8gJ 8e 8B-X/	[	(16.gg\	.
.	.	.	32eeeJJk 32gg 32b-X\)	[[
=101	=101	=101	=101	=101
!	!	!	!LO:TX:t=P:problem:diminuendolike accent	!
4C# 4CC#/	4g 4e 4A^/	.	16eeeLL 16gg 16a^<\	.
.	.	.	16A\	<
.	.	.	16c#\	.
.	.	.	16e\JJ	.
4C# 4CC#/	4g 4e 4A^/	.	16a\LL	.
.	.	.	16a\	.
.	.	.	16cc#\	.
.	.	.	16ee\JJ	.
4C# 4CC#/	4g 4e 4A^/	.	16aa\LL	.
.	.	.	16aa\	.
.	.	.	16ccc#\	.
.	.	.	16eee\JJ	[[
!!LO:LB:g=original
=102	=102	=102	=102	=102
!	!	!	!LO:TX:t=P:problem:diminuendolike accent	!
4AA 4AAA/	8r	.	16aaa^<\LL	.
.	.	.	16aaa\	.
*	*	*	*8va	*
.	8eL 8c# 8A/	<	16cccc#\	<
.	.	.	16eeee\JJ	.
4r	8a 8e 8c#/	.	16aaaa\LL	.
.	.	.	16gggg#X\	.
.	8cc#J 8a 8e/	.	16aaaa\	.
.	.	.	16aaaa#X\JJ	.
8r	8eeL 8cc# 8a\	.	8bbbb\L	.
*	*	*	*X8va	*
8AA 8AAA/	8aaJ 8ee 8cc# 8a 8g\	[	8c#X\J	[[
=103	=103	=103	=103	=103
!	!	!	!LO:TX:a:B:t=F:rj	!
4DD 4DDD/	8ddd 8aa 8ff# 8dd^<\	.	8d/L	>
.	4f# 4d 4A/	.	[8d/J	.
4D 4DD/	.	.	16d/LL]	]
.	.	.	16e/	<
.	8f#L 8d 8A/	<	16f#/	.
.	.	.	16c#/JJ	.
4D 4DD/	8f# 8d 8A/	.	16e/LL	.
.	.	.	16d/	.
.	8f#J 8d 8A/	[	16c#/	.
.	.	.	16B/JJ	[[
=104	=104	=104	=104	=104
4D 4DD/	8f# 8d 8A^/	.	(16.A^/LL	.
.	.	.	32f#/K)	<
.	4f# 4d 4A/	.	(16d/	.
.	.	.	16a/JJ)	.
4D 4DD/	.	.	(16.f#\LL	.
.	.	.	32dd\K)	.
.	8f#L 8d 8A/	<	(16a\	.
.	.	.	16ff#\JJ)	.
4D 4DD/	8f# 8d 8A/	.	(16.dd\LL	.
.	.	.	32aa\K)	.
.	8f#J 8d 8A/	[	(16ff#\	.
.	.	.	16ddd\JJ)	[[
=105	=105	=105	=105	=105
4D 4DD/	4f# 4d 4A^/	.	8aa\L	>
.	.	.	8.d\J	.
4D 4DD/	4f# 4d 4A^/	.	.	]
.	.	.	(16ff#LL 16dd'\	<
.	.	.	16gg 16ee'\	.
.	.	.	16aaJJ 16ff#'\	.
!	!LO:MO:mod=!LO&colon;TX&colon;b&colon;i&colon;t=accel.	!	!	!
!	!LO:TX:a:Bi:t=accel.:color=deeppink	!	!	!
4D 4DD/	4f# 4d 4A^/	.	16bbLL 16gg'\	.
.	.	.	16ccc# 16aa'\	.
.	.	.	16ddd 16bb'\	.
.	.	.	16eeeJJ 16ccc#'\	.
=106	=106	=106	=106	=106
4D 4DD/	8r	.	16fff#LL 16ddd'\	.
.	.	.	16eee 16ccc#'\	.
.	8f#L 8d 8A\	.	16ddd 16bb'\	.
.	.	.	16ccc#JJ 16aa'\	.
4r	8a 8f# 8d\	.	16dddLL 16bb'\	.
.	.	.	16ccc# 16aa'\	.
.	8dd 8a 8f#\	.	16bb 16gg'\	.
.	.	.	16aaJJ 16ff#'\	.
8r	8ff# 8dd 8a\	.	16bbLL 16gg'\	.
.	.	.	16aa 16ff#'\	.
8BB 8BBB/	8bbJ 8ff# 8dd#X 8b 8a\	.	16gg 16ee'\	.
.	.	.	16ff#JJ 16dd#X'\	[[
!!LO:LB:g=original
=107	=107	=107	=107	=107
!	!LO:MO:mod=!LO&colon;TX&colon;a&colon;i&colon;t=a tempo	!	!LO:MO:mod=!LO&colon;TX&colon;a&colon;i&colon;t=[a tempo]	!
!	!LO:TX:a:Bi:t=a tempo:color=deeppink	!	!null	!
4E 4EE/	8ee 8b 8g^<\	.	8ggL 8ee'\)	>
.	4g 4e 4B/	.	8.eJ 8.G\	.
4E 4EE/	.	.	.	]
.	.	.	16f#LL 16B^/	.
.	8gL 8e 8B/	.	16g 16e/	.
.	.	.	16bJJ 16f#^/	.
4E 4EE/	8g 8e 8B/	.	16eeLL 16g\	.
.	.	.	16ff# 16b^\	.
.	8gJ 8e 8B/	.	16gg 16ee\	.
.	.	.	16bbJJ 16ff#^\	.
=108	=108	=108	=108	=108
!	!LO:TX:b:i:t=poco rall.:note=podkreślone na różowo	!	!LO:TX:b:i:t=poco rall.	!
4E 4EE/	8g 8e 8B/	.	16eeeLL 16gg\	.
.	.	.	16bb 16ff#^\	.
.	4g 4e 4B/	.	16gg 16ee\	.
.	.	.	16ff#JJ 16b^\	.
4E 4EE/	.	.	16eeLL 16g/	.
.	.	.	16b 16f#^/	.
.	8gL 8e 8B/	<	16g 16e/	.
.	.	.	16f#JJ 16B^/	.
8EL 8EE/	8g 8e 8B/	.	(16eLL 16G/	.
.	.	.	16eeJJ 16b/)	.
*	*	*	*8va	*
8DJ 8DD/	8gJ 8e 8B-X/	[	(16.eeee\LL	<
*	*	*	*X8va	*
.	.	.	32eeeJJk 32gg 32b-X\)	[[
=109	=109	=109	=109	=109
!	!LO:TX:a:i:t=a tempo	!	!LO:TX:a:i:t=a tempo	!
4C# 4CC#/	4g 4e 4A^/	.	16eee 16gg 16a'^<\	.
.	.	.	16A/LL	<
.	.	.	16c#/	.
.	.	.	16e/JJ	.
4C# 4CC#/	4g 4e 4A^/	.	16a\LL	.
.	.	.	16a\	.
.	.	.	16cc#\	.
.	.	.	16ee\JJ	.
4C# 4CC#/	4g 4e 4A^/	.	16aa\LL	.
.	.	.	16aa\	.
.	.	.	16ccc#\	.
.	.	.	16eee\JJ	[[
=110	=110	=110	=110	=110
4AA 4AAA/	8r	.	16aaa\LL	>
.	.	.	16aaa\	.
*	*	*	*8va	*
.	8eL 8c# 8A/	<	16cccc#\	] <
.	.	.	16eeee\JJ	.
4r	8a 8e 8c#/	.	16aaaa\LL	.
.	.	.	16gggg#X\	.
.	8cc#J 8a 8e/	.	16aaaa\	.
.	.	.	16aaaa#X\JJ	.
8r	8eeL 8cc# 8a\	.	8bbbb\L	.
*	*	*	*X8va	*
8AA 8AAA/	8aaJ 8ee 8cc# 8a 8g\	[[	8c#X\J	[[
!!LO:PB:g=original
=111	=111	=111	=111	=111
!	!	!	!LO:TX:a:i:t=più lento	!
4DD 4DDD/	8ddd 8aa 8ff# 8dd^<\	.	(8d^<\L	.
.	8Fn/L	p	16dd\L	p
!	!	!	!LO:TX:b:i:t=grazioso	!
.	.	.	16ddd\JJ	<
2BB-X 2BBB-X/	8fn 8d 8B-X/	.	16cccnM\LL	.
.	.	.	16bb-X\	.
.	8F/	.	16dd\	.
.	.	.	16gg\JJ	.
.	8f 8d 8B-/	.	16ffnM\LL	.
.	.	.	16dd\	.
.	8F/J	.	16b-X\	.
.	.	.	16g\JJ)	[
=112	=112	=112	=112	=112
!	!	!	!LO:TX:t=P:problem:diminuendolike accent	!
2.BB-X 2.BBB-X/	8r	.	(8fn^/L	.
.	8Fn/L	.	16d/L	<
.	.	.	16g/JJ	.
.	8fn 8d 8B-X/	.	16fM</LL	.
.	.	.	16d/	.
.	8F/	.	16A/	.
.	.	.	16B-X/JJ	.
.	8f 8d 8B-/	.	16dm/LL	.
.	.	.	16f/	.
.	8F/J	.	16b-X/	.
.	.	.	16gg/JJ)	[[
=113	=113	=113	=113	=113
2Fn 2FFn/	8r	.	(8ffn\L	>
.	[8cn/	.	[8ee-X\J	.
.	[8e-XL 8c/_	.	8ee-\])	]
.	8a 8e-] 8c/]	.	(16ee-LL 16fn\	<
.	.	.	16cccnJJ 16ee-\)	.
8G-XL 8GG-X/	8a-X 8e- 8c/	f	(16ee-LL 16g-X\	[ ff
.	.	.	16ccc\)	.
8GnJ 8GGn/	8gJ 8e- 8c/	.	(16ee- 16gn\	.
.	.	.	16ccc\JJ)	.
=114	=114	=114	=114	=114
8A-XL 8AA-X/	8g-XL 8e-X 8cn/	.	(16ee-XLL 16a-X\	.
.	.	.	16cccn\)	.
8G 8GG/	8gn 8e- 8c/	.	(16ee- 16gn\	.
.	.	.	16ccc\JJ)	.
8G-X 8GG-X/	8a-X 8e- 8c/	.	(16ee-LL 16g-X\	.
.	.	.	16ccc 16ee-\)	.
8FnJ 8FFn/	8anJ 8e- 8c/	.	(16ee- 16fn\	.
.	.	.	16ccc\JJ)	.
!	!LO:TX:b:i:t=rall.	!	!LO:TX:b:i:t=rall.	!
4F 4FF/	(>4ee-X 4a 4e-/	>	(16ccccnLL 16eee-X\	>
.	.	.	16aaa 16ccc\	.
.	.	.	16fffn 16aa\	.
.	.	.	16eee-XJJ 16ffn\)	.
=115	=115	=115	=115	=115
2.BB-X 2.BBB-X/	8dd 8b-X 8d/)	]	(8dddL 8bb-X\	]
!	!LO:TX:a:i:t=a tempo	!	!	!
.	8Fn/L	.	(16dd\L	p
!	!	!	!LO:TX:a:i:t=a tempo	!
.	.	.	16ddd\JJ)	.
.	8fn 8d 8B-X/	.	16cccnM\LL	.
.	.	.	16bb-\	.
.	8F/	.	16dd\	.
.	.	.	16ee-X\JJ	.
!	!	!	!LO:MO:mod=!LO&colon;TUP&colon;b&colon;r=8	!
!	!	!	!null	!
.	8f 8d 8B-/	.	24een\LL	.
.	.	.	24gg\	.
.	.	.	24ffn\J	.
!	!	!	!LO:MO:mod=!LO&colon;TUP&colon;b&colon;r=8	!
!	!	!	!null	!
.	8F/J	.	24dd\L	.
.	.	.	24b-X\	.
.	.	.	24g\JJ)	.
!!LO:LB:g=original
=116	=116	=116	=116	=116
!	!	!	!LO:TX:t=P:problem:diminuendolike accent	!
2.BB-X 2.BBB-X/	8r	.	(8fn^/L	.
.	8Fn/L	.	16d/L	<
.	.	.	16g/JJ	.
.	8fn 8d 8B-X/	.	16fM/LL	.
.	.	.	16d/	.
.	8F/	.	16A/	.
.	.	.	16B-X/JJ	.
!	!	!	!LO:MO:mod=!LO&colon;TUP&colon;b&colon;r=8	!
!	!	!	!null	!
.	8f 8d 8B-/	.	24d\LL	.
.	.	.	24f\	.
.	.	.	24a\J	.
!	!	!	!LO:MO:mod=!LO&colon;TUP&colon;b&colon;r=8	!
!	!	!	!null	!
.	8eJ 8d-X 8F/	.	24b-X\L	.
.	.	.	24aa\	.
.	.	.	24gg\JJ)	[[
=117	=117	=117	=117	=117
2Fn 2FFn/	8r	.	(8ffn\L	>
.	[8cn/	.	[8ee-X\J	.
.	[<8e-XL 8c/_	.	8ee-\])	]
.	8a 8e-] 8c/]	.	(16ee-LL 16fn\	<
.	.	.	16cccnJJ 16ee-\)	.
8G-XL 8GG-X/	8a-X 8e- 8c/	f	(16ee-LL 16g-X\	[ ff
.	.	.	16ccc 16ee-\)	.
8GnJ 8GGn/	8gJ 8e- 8c/	.	(16ee- 16gn\	.
.	.	.	16cccJJ 16ee-\)	.
=118	=118	=118	=118	=118
8A-XL 8AA-X/	8g-XL 8e-X 8cn/	.	(16ee-XLL 16a-X\	.
.	.	.	16cccn\)	.
8G 8GG/	8gn 8e- 8c/	.	(16ee- 16gn\	.
.	.	.	16ccc\JJ)	.
8G-X 8GG-X/	8a-X 8e- 8c/	.	(16ee-LL 16g-X\	.
.	.	.	16ccc 16ee-\)	.
8FnJ 8FFn/	8anJ 8e- 8c/	.	(16ee- 16fn\	.
.	.	.	16ccc\JJ)	.
!	!LO:TX:b:i:t=rall.	!	!LO:TX:b:i:t=rall.	!
4F 4FF/	(>4ee-X 4a 4e-/	>	(16ccccnLL 16eee-X\	>
.	.	.	16aaa 16ccc\	.
.	.	.	16fffn 16aa\	.
.	.	.	16eee-XJJ 16ffn\)	.
=119	=119	=119	=119	=119
!	!	!	!LO:TX:a:B:t=G:rj	!
4BB-X 4BBB-X/	4dd 4b-X 4d/)	]	(8dddL 8bb-X'\	]
.	.	.	(16dd\L	p
!	!	!	!LO:TX:b:i:t=a tempo	!
.	.	.	16ddd\JJ)	<
!	!LO:TX:a:i:t=a tempo	!	!	!
2F#X [>2D 2FF#X/	[2dd 2ccn 2a [2d/	p	16cccnM\LL	.
.	.	.	16aa\	.
.	.	.	16ff#X\	.
.	.	.	16dd\JJ	.
.	.	.	16ccnM\LL	.
.	.	.	16a\	.
.	.	.	16d\	.
.	.	.	16cc\JJ)	[[
=120	=120	=120	=120	=120
4G 4D] 4GG/	4dd] 4b-X 4g 4d/]	.	(8b-X'^<\L	.
.	.	.	(16g\L	<
.	.	.	16bb-X\JJ)	.
2C#X [>2AA 2CC#X/	[2a 2g 2e [2A/	.	16aam\LL	.
.	.	.	16gg\	.
.	.	.	16een\	.
.	.	.	16cc#X\JJ	.
.	.	.	16am/LL	.
.	.	.	16g/	.
.	.	.	16A/	.
.	.	.	16g/JJ)	[[
!!LO:LB:g=original
=121	=121	=121	=121	=121
!	!	!	!LO:TX:t=P:problem:diminuendolike accent	!
4D 4AA] 4DD/	4a] 4fn 4d 4A/]	<	(8fn'^<\L	.
.	.	.	(16d\L	<
.	.	.	16ffn\JJ))	.
*	*clefF4	*	*	*
!	!LO:TX:t=P:problem:mixed beam	!	!	!
2ryy	8GG#X<L 8GGG#X</	.	(16eem\LL	.
.	.	.	16dd\	.
.	8B 8Fn 8D\	.	16bn\)	.
.	.	.	16g#X'\JJ	.
.	8BBn< 8BBBn</	.	(16bb\LL	.
.	.	.	16gg#X\	.
.	8dJ 8G#X 8Fn\	.	16ff\)	.
.	.	.	16dd'\JJ	.
*	*clefG2	*	*	*
=122	=122	=122	=122	=122
!	!LO:TX:t=P:problem:mixed beam	!	!	!
2.ryy	8D<L 8DD</	.	(16dddLL 16b'\	.
.	.	.	16ddd 16b'\	.
.	8fn 8B 8G#X\	.	16fffn 16dd'\	mf <
.	.	.	16fffJJ 16dd'\	.
.	8Fn< 8FFn</	.	16ggg#XLL 16ffn'\	.
.	.	.	16ggg# 16ff'\	.
.	8g#X 8d 8B\	.	16bbb 16gg#X'\	.
.	.	.	16bbbJJ 16gg#'\	.
!	!	!	!LO:TX:t=P:problem:mixed beam	!
.	8G#X< 8GG#X</	.	8ddddL 8bb'\)	.
.	8bJ 8f 8d\	.	8G#X/J	[
=123	=123	=123	=123	=123
2.A 2.AA\	2.a 2.f#X 2.d/	mf	8A/L	>
.	.	.	8a/J	]
.	.	.	16aaaLL 16a\	<
.	.	.	16ggg#X 16a\	.
.	.	.	16gggn 16a\	.
.	.	.	16fff#JJ 16a\	.
.	.	.	16eeeLL 16a\	.
.	.	.	16ddd 16a\	.
.	.	.	16ccc# 16a\	.
.	.	.	16bbJJ 16a\	.
=124	=124	=124	=124	=124
*tremolo	*	*	*	*
32AAA/LLL	2a 2d 2B 2A/	.	16aaLL 16a\	.
32AA/	.	.	.	.
32AAA/	.	.	16gg#X 16a\	.
32AA/	.	.	.	.
32AAA/	.	.	16ggn 16a\	.
32AA/	.	.	.	.
32AAA/	.	.	16ff#JJ 16a\	.
32AA/	.	.	.	.
32AAA/	.	.	16eeLL 16a\	.
32AA/	.	.	.	.
32AAA/	.	.	16dd 16a\	.
32AA/	.	.	.	.
32AAA/	.	.	16cc# 16a\	.
32AA/	.	.	.	.
32AAA/	.	.	16bJJ 16a\	.
32AA/	.	.	.	.
32AAA/	4a 4d#X 4B#X 4A/	.	16a/LL 16a	.
32AA/	.	.	.	.
32AAA/	.	.	16a 16g#X/	.
32AA/	.	.	.	.
32AAA/	.	.	16a 16gn/	.
32AA/	.	.	.	.
32AAA/	.	.	16aJJ 16f#/	.
32AA/JJJ	.	.	.	.
=125	=125	=125	=125	=125
32AAA/LLL	4a 4e 4c# 4A/	.	16aLL 16e/	.
32AA/	.	.	.	.
32AAA/	.	.	16a 16d/	.
32AA/	.	.	.	.
32AAA/	.	.	16a 16c#/	.
32AA/	.	.	.	.
32AAA/	.	.	16aJJ 16B/	.
32AA/	.	.	.	.
32AAA/	4a 4fn 4d 4A/	.	16aLL 16A/	.
32AA/	.	.	.	.
32AAA/	.	.	16a 16G#X/	.
32AA/	.	.	.	.
32AAA/	.	.	16a 16A/	.
32AA/	.	.	.	.
32AAA/	.	.	16aJJ 16B-X/	.
32AA/	.	.	.	.
!	!LO:TX:b:i:t=rall.	!	!LO:TX:b:i:t=rall.	!
32AAA/	4a 4f#X 4d#X 4A/	.	16aLL 16A/	.
32AA/	.	.	.	.
32AAA/	.	.	16a 16G#/	.
32AA/	.	.	.	.
32AAA/	.	.	16a 16A/	.
32AA/	.	.	.	.
32AAA/	.	.	16aJJ 16B-/	.
32AA/JJJ	.	.	.	.
*Xtremolo	*	*	*	*
!!LO:LB:g=original
=126	=126	=126	=126	=126
!	!	!	!LO:TX:a:i:t=a tempo	!
!	!LO:TX:a:i:t=a tempo	!	!LO:TX:t=P:problem:mixed beam	!
8AA 8AAA/	8a 8g 8e 8c#/	p	8A^/L	mf <
8r	8r	<	8aa^\	.
8AA 8AAA/	8g#X 8d 8B/	.	8bb^\	.
8r	8r	.	8B^/	.
8AA 8AAA/	8gn 8e 8c#/	.	8c#^/	.
8r	8r	[	8ccc#^\J	[
=127	=127	=127	=127	=127
.	.	.	(8qccc#/	.
4DD 4DDD/	8r	mf	(8eee'^<\L)	f
.	16f#LL 16d 16A'>/	>	8ddd'^<\J)	.
.	16f#JJ 16d 16A'>/	.	.	.
4r	8f#L 8d 8A'>/	.	4.aa\	>
.	8f#J 8d 8A'>/	]	.	.
!	!LO:TX:t=P:problem:mixed beam	!	!	!
4ryy	8FF#<L 8FFF#</	mp	.	.
.	8f#J 8d 8A#X\	.	(8aa#X'\	] mf
=128	=128	=128	=128	=128
.	.	.	(16qqaa#X/LL	.
.	.	.	16qqccc#/JJ	.
!	!LO:TX:t=P:problem:mixed beam	!	!LO:TX:b:i:t=grazioso	!
2.ryy	8GG<L 8GGG</	.	8bb\L))	.
.	8e 8d 8B\	.	16ff#'\L	.
.	.	.	(16aan\JJ	.
.	.	.	(16qqgg/LL	.
.	.	.	16qqaa/JJ	.
.	8EE< 8EEE</	.	8gg\L))	.
.	8g 8e 8d 8B\	.	16b'\L	.
.	.	.	(16dd\JJ	.
.	.	.	(16qqcc#/LL	.
.	.	.	16qqdd/JJ	.
.	8AA< 8AAA</	.	8cc#\L))	.
!	!LO:TX:b:i:t=rit.	!	!LO:TX:b:i:t=rit.	!
.	(8gJ 8e 8c# 8A'\	.	16b#X'\L	.
.	.	.	16cc#'\JJ	.
=129	=129	=129	=129	=129
.	.	.	(8qcc#/	.
8DD'\L	8f#L 8d'/	>	(16bb\LL)	>
.	.	.	16aa\	.
8A'\	16r	.	16dd\	.
.	16gJk 16c#'/	.	16ee\JJ)	.
!	!	!	!	!LO:MO:null:mod=]
8D'\	4f# 4d/)	.	(4.ff#\	.
!	!	!	!	!LO:MO:mod=<
8AA'\J	.	.	.	]
!	!	!	!	!LO:MO:mod=.
8DD'>/	8r	]	.	<
!	!LO:TX:a:i:t=a tempo	!	!LO:TX:a:i:t=a tempo	!
8Cn 8CCn/	8a#X 8g 8e/	< [[	24ccn\LL	.
.	.	.	24dd\	.
!	!	!	!	!LO:MO:null:mod=[[
.	.	.	24cc\JJ	.
=130	=130	=130	=130	=130
!	!	!	!	!LO:MO:mod=f
8BBL 8BBB\	4b 4f# 4d#X/	f	8b\L)	[ f
8BJ 8BB\	.	.	16B'\L	ff
.	.	.	16bb'\JJ	.
8A#XL 8AA#X\	8cc#L 8b 8e\	.	16ccc#'\LL	.
.	.	.	16c#'\	.
8An 8AAn\	8dd#X 8b 8f#\	.	16d#X'\	.
.	.	.	16ddd#X'\JJ	.
8G 8GG\	8ee 8b 8g\	.	16eee'\LL	.
.	.	.	16e'\	.
8F#J 8FF#\	8ff#J 8dd# 8ccn 8a\	.	16f#'\	.
.	.	.	16fff#'\JJ	.
!!LO:PB:g=original
=131	=131	=131	=131	=131
!	!	!	!LO:TX:b:i:t=largamente	!
2E 2GG 2EE/	2gg 2ee 2ddn 2b-X 2g\	.	(16ggg\LL	.
.	.	.	16eee\)	.
.	.	.	16dddn~\	.
.	.	.	16bb-X~\JJ	.
.	.	.	16gg~\LL	.
.	.	.	16ee~\	.
.	.	.	16ddn~\	.
.	.	.	16b-X~\JJ	.
8GGL 8GGG/	8b-L 8e 8d/	<	16g~/LL	.
.	.	.	16e~/JJ	.
8GG#XJ 8GGG#X/	8b-J 8fn 8d/	[[	16.ddd;\	.
.	.	.	32g#X~/	<[
=132	=132	=132	=132	=132
!	!LO:TX:t=P:problem:diminuendolike accent	!	!LO:TX:t=P:problem:diminuendolike accent	!
4AA 4AAA/	4a 4f#X 4d^/	.	8A^<\L	.
*	*	*	*tuplet	*
.	.	.	(24aa\L	.
.	.	.	24bb\	.
.	.	.	24aa\JJ)	.
*	*	*	*8va	*
4r	8r	.	8aaaa\	.
*	*tuplet	*	*X8va	*
.	(24a\LL	.	8r	.
.	24b\	.	.	.
.	24a\JJ	.	.	.
8r	8aa\)	.	8r	.
!	!	!	!	!LO:HP:a
8A 8F# 8D 8AA\	8aa 8ff# 8dd 8a\	<[	8aa 8dd 8f# 8A\	<[
=133	=133	=133	=133	=133
!	!LO:TX:t=P:problem:diminuendolike accent	!	!LO:TX:t=P:problem:diminuendolike accent	!
4B 4F# 4D#X 4AA\	4bb 4ff# 4dd#X 4b^<\	.	8bb 8dd#X 8f# 8A^\	.
.	.	.	(24aa\LL	.
.	.	.	24bb\	.
.	.	.	24aa\JJ)	.
*	*	*	*8va	*
4r	8r	.	8aaaa\	.
*	*	*	*X8va	*
.	(24a\LL	.	8r	.
.	24b\	.	.	.
.	24a\JJ	.	.	.
8r	8aa\)	.	8r	.
!	!	!	!	!LO:HP:a
8B 8F# 8D# 8AA\	8bb 8ff# 8dd# 8b\	<[	8bb 8dd# 8f# 8A\	<[
=134	=134	=134	=134	=134
!	!LO:TX:t=P:problem:diminuendolike accent	!	!LO:TX:t=P:problem:diminuendolike accent	!
4cn 4G 4E 4AA\	4cccn 4gg 4ee 4ccn^<\	.	8cccn 8ee 8g 8A^\	.
.	.	.	(24aa\LL	.
.	.	.	24bb\	.
.	.	.	24aa\JJ)	.
*	*	*	*8va	*
4r	8r	.	8aaaa\	.
*	*	*	*X8va	*
.	(24a\LL	.	8r	.
.	24b\	.	.	.
.	24a\JJ	.	.	.
8r	8aa\)	.	8r	.
!	!	!	!	!LO:HP:a
8c 8G 8E 8AA\	8ccc 8gg 8ee 8cc\	<[	8ccc 8ee 8g 8A\	<[
!!LO:LB:g=original
=135	=135	=135	=135	=135
!	!LO:TX:t=P:problem:diminuendolike accent	!	!LO:TX:t=P:problem:diminuendolike accent	!
8c#X 8G 8E 8AA\	4ccc#X 4gg 4ee 4cc#X^<\	.	8ccc#X 8ee 8g 8A^\	.
8r	.	.	(24aa\LL	.
.	.	.	24bb\	.
.	.	.	24aa\JJ)	.
*	*	*	*8va	*
4r	8r	.	8aaaa\	.
*	*	*	*X8va	*
.	(24a\LL	.	8r	.
.	24b\	.	.	.
.	24a\JJ	.	.	.
8r	8aa\)	.	8r	.
!	!	!	!	!LO:HP:a
8AA 8AAA/	8aa 8ee 8cc# 8a 8g\	<[	8ccc# 8ee 8g 8A\	<[
=136	=136	=136	=136	=136
!	!	!	!LO:TX:a:B:t=H:rj	!
!	!LO:TX:t=P:problem:diminuendolike accent	!	!LO:TX:t=P:problem:diminuendolike accent	!
4DD 4DDD/	4ddd 4aa 4ff# 4dd^<\	.	8ddd 8ff# 8a 8d^\	.
.	.	.	[8d/	.
4r	4r	.	16d/LL]	.
.	.	.	16e/	<
.	.	.	16f#/	.
.	.	.	16c#/JJ	.
4r	4r	.	16e/LL	.
.	.	.	16d/	.
.	.	.	16c#/	.
.	.	.	16B/JJ	[[
=137	=137	=137	=137	=137
!	!LO:TX:t=P:problem:mixed beam	!	!	!
2ryy	8FF#<L 8FFF#</	.	16A#X/LL	>
.	.	.	(16A#/JJ	]
.	8a#X 8e 8c# 8A#X\	.	16ccc#LL 16ee 16gn/)	<
.	.	.	(16gJJ 16A#/	[
.	8BB< 8BBB</	.	16f#LL 16B/)	>
.	.	.	(16f#JJ 16B/	]
.	8bJ 8d 8B\	.	16dddLL 16dd\)	<
.	.	.	(16f#JJ 16B\	[
8GG#XL 8GGG#X/	8r	.	16fnLL 16G#X/)	>
.	.	.	(16fJJ 16G#/	]
*	*clefF4	*	*	*
8D/J	(8fn 8B 8Fn\	.	16bbLL 16dd\)	<
.	.	.	(<16fJJ 16G#\	[[
=138	=138	=138	=138	=138
2AA 2AAA/	2e 2d 2A 2E\)	.	16A/LL	>
.	.	.	16e/JJ)	]
.	.	.	(32a\LLL	.
.	.	.	32aa\)	.
.	.	.	(32b\	.
.	.	.	32bb\JJJ)	.
.	.	.	(32cc#\LLL	.
.	.	.	32ccc#\)	.
.	.	.	(32dd\	.
.	.	.	32ddd\)J	.
.	.	.	(32ee\L	.
.	.	.	32eee\)	.
.	.	.	(32ff#\	.
.	.	.	32fff#\JJJ)	.
*	*clefG2	*	*8va	*
4AA 4AAA/	4a 4e 4c# 4G/	.	(32gg\LLL	.
.	.	.	32ggg\)	.
.	.	.	(32aa\	.
.	.	.	32aaa\)J	.
.	.	.	(32bb\L	.
.	.	.	32bbb\)	.
.	.	.	(32ccc#\	.
.	.	.	32cccc#\JJJ)	.
!!LO:LB:g=original
=139	=139	=139	=139	=139
4DD 4DDD/	4a 4f# 4d 4A/	.	8dddd 8ddd\	.
*	*	*	*X8va	*
.	.	.	[8d/	.
4r	4r	.	16d/LL]	.
.	.	.	16e/	<
.	.	.	16f#/	.
.	.	.	16c#/JJ	.
4r	4r	.	16e/LL	.
.	.	.	16d/	.
.	.	.	16c#/	.
.	.	.	16B/JJ	[[
=140	=140	=140	=140	=140
!	!LO:TX:t=P:problem:mixed beam	!	!	!
2ryy	8FF#<L 8FFF#</	.	(32A#X\LLL	>
.	.	.	32gn\	.
.	.	.	32ee\	.
.	.	.	32ccc#\JJJ)	]
.	8a#X 8e 8c# 8A#X\	.	(32ccc#\LLL	<
.	.	.	32ee\	.
.	.	.	32g\	.
.	.	.	32A#\J	[
.	8BB< 8BBB</	.	32B\L	>
.	.	.	32f#\	.
.	.	.	32dd\	.
.	.	.	32ddd\JJJ)	]
.	8bJ 8d 8B\	.	(32ddd\LLL	<
.	.	.	32dd\	.
.	.	.	32f#\	.
.	.	.	32B\J	[
8GG#XL 8GGG#X/	8r	.	32G#X\L	>
.	.	.	32fn\	.
.	.	.	32dd\	.
.	.	.	32bb\JJJ)	]
*	*clefF4	*	*	*
8D/J	(8fn 8B 8Fn\	.	(32bb\LLL	<
.	.	.	32dd\	.
.	.	.	32f\	.
.	.	.	32G#\JJJ)	[[
=141	=141	=141	=141	=141
2AA 2AAA/	2e 2d 2A 2E\)	.	(16A/LL	>
.	.	.	16e/JJ)	]
.	.	.	(32a\LLL	<
.	.	.	32aa\)	.
.	.	.	(32b\	.
.	.	.	32bb\JJJ)	.
.	.	.	(32cc#\LLL	.
.	.	.	32ccc#\)	.
.	.	.	(32dd\	.
.	.	.	32ddd\)J	.
.	.	.	(32ee\L	.
.	.	.	32eee\)	.
.	.	.	(32ff#\	.
.	.	.	32fff#\JJJ)	.
*	*clefG2	*	*8va	*
4AA 4AAA/	(>4a 4e 4c# 4A/	.	(32gg\LLL	.
.	.	.	32ggg\)	.
.	.	.	(32aa\	.
.	.	.	32aaa\)J	.
.	.	.	(32bb\L	.
.	.	.	32bbb\)	.
.	.	.	(32ccc#\	.
.	.	.	32cccc#\JJJ)	.
=142	=142	=142	=142	=142
8DD 8DDD/	8dd 8a 8f# 8d'>/)	.	8dddd 8ddd\	ff
*	*	*	*X8va	*
16ALL 16F# 16D\	16d'>/LL	<	[8d/	<
16AJJ 16F# 16D\	16d'>/JJ	[	.	.
4A 4F# 4D\	4d^/	.	16d/LL]	.
.	.	.	16A/	<
.	.	.	16d/	.
.	.	.	16f#/JJ	.
4r	4r	.	16a/LL	.
.	.	.	16d/	.
.	.	.	16f#/	.
.	.	.	16a/JJ	[[
!!LO:LB:g=original
=143	=143	=143	=143	=143
8DD 8DDD/	8ff# 8dd 8a 8f#\	.	16dd^/LL	.
.	.	.	16d 16A/	<
16ALL 16F# 16D\	16d'>/LL	<	16f# 16d/	.
16AJJ 16F# 16D\	16d'>/JJ	[	16aJJ 16e/	.
4A 4F# 4D\	4d^/	.	16ddLL 16f#\	.
.	.	.	16a 16e\	.
.	.	.	16dd 16f#\	.
.	.	.	16eeJJ 16a\	.
4r	4r	.	16ff#LL 16dd\	.
.	.	.	16a 16f#\	.
.	.	.	16dd 16f#\	.
.	.	.	16ff#JJ 16dd\	[[
=144	=144	=144	=144	=144
8DD 8DDD/	8aa 8ff# 8dd 8a\	.	([4aa [4ff#\	>
16ALL 16F# 16D\	16d'>/LL	<	.	.
16AJJ 16F# 16D\	16d'>/JJ	[	.	.
4A 4F# 4D\	4d^/	.	16aa]LL 16ff#\]	]
.	.	.	16fff# 16dd\)	<
.	.	.	16ggg 16ee'\	.
.	.	.	16aaaJJ 16ff#'\	.
*	*	*	*8va	*
4r	4r	.	16bbbLL 16gg'\	.
.	.	.	16cccc# 16aa'\	.
.	.	.	16dddd 16bb'\	.
.	.	.	16eeeeJJ 16ccc#'\	[[
=145	=145	=145	=145	=145
8DD 8DDD/	8ddd 8aa 8ff# 8dd`\	.	8ffff# 8ddd`\	>
*	*clefF4	*	*	*
*	*	*	*X8va	*
!	!	!	!	!LO:DY:a
16DLL 16AA 16DD/	16f#LL 16d 16A 16F#'\	ff	16d/LL	] fff <
16DJJ 16AA 16DD/	16f#JJ 16d 16A 16F#'\	.	16d/JJ	.
8DL 8AA 8DD/	8f#L 8d 8A 8F#'\	.	8d/L	.
8D 8AA 8DD/	8f# 8d 8A 8F#'\	.	8d/	.
8D 8AA 8DD/	8f# 8d 8A 8F#'\	.	8d/	.
8DJ 8AA 8DD/	8f#J 8d 8A 8F#'\	.	8d/J	[
=146	=146	=146	=146	=146
4D 4AA 4DD/	4f# 4d 4A 4F#`\	.	(48dLLL 48c#/	>
.	.	.	48d/	.
.	.	.	48eJJ 48d/	.
.	.	.	8.d/J)	]
*	*clefG2	*	*	*
4A 4F# 4D\	4dd 4a 4f# 4d`>/	.	4ff# 4a 4d\	.
*clefG2	*	*	*	*
4a 4f# 4d/	4ddd 4aa 4ff# 4dd`\	.	4fff# 4a 4d\	.
*clefF4	*	*	*	*
=147	=147	=147	=147	=147
*8ba	*8va	*	*	*
8DD 8AAA 8DDD/	8dddd 8aaa 8fff# 8ddd`\	.	8d/	.
*X8ba	*X8va	*	*	*
8r	8r	.	8r	.
4r	4r	.	4r	.
4r	4r	.	4r	.
==	==	==	==	==
*-	*-	*-	*-	*-
!!!system-decoration: s1{(s2,s3)}
!!!RDF**kern: > = above
!!!RDF**kern: < = below
!!!RDF**kern: N = linked
!!!filter-modern: sic -sq | shed -e "s/TX(.*):t=P:/tx$1:t=P:/LG" | shed -e "s/LO:DY:(a|b|rj)/LO:dy:$1/L" | shed -k -e “s/([^a-gA-Gn#X-])[<>]/$1/g” | modori -m
!!!ENC: Andrzej Kubiczek
!!!END: 2022-05-13
!!!ENC: Andrzej Kubiczek
!!!END: 2022-05-14
!!!ENC-modern: Marta Lawrence
!!!END-modern: 2022-07-19
